;FLAVOR:Marlin
;TIME:7175
;Filament used: 8.7651m
;Layer height: 0.28
;MINX:48.005
;MINY:48.005
;MINZ:0.28
;MAXX:171.995
;MAXY:171.995
;MAXZ:12.88
;Generated with Cura_SteamEngine 4.12.0
M140 S60
M105
M190 S60
M104 S200
M105
M109 S200
M82 ;absolute extrusion mode
; Ender 3 Custom Start G-code
G92 E0 ; Reset Extruder
G28 ; Home all axes
G1 Z2.0 F3000 ; Move Z Axis up little to prevent scratching of Heat Bed
G1 X0.1 Y20 Z0.3 F5000.0 ; Move to start position
G1 X0.1 Y200.0 Z0.3 F1500.0 E15 ; Draw the first line
G1 X0.4 Y200.0 Z0.3 F5000.0 ; Move to side a little
G1 X0.4 Y20 Z0.3 F1500.0 E30 ; Draw the second line
G92 E0 ; Reset Extruder
G1 Z2.0 F3000 ; Move Z Axis up little to prevent scratching of Heat Bed
G1 X5 Y20 Z0.3 F5000.0 ; Move over to prevent blob squish
G92 E0
G92 E0
G1 F1500 E-6.5
;LAYER_COUNT:46
;LAYER:0
M107
G0 F6000 X53.01 Y52.974 Z0.28
;TYPE:SKIRT
G1 F1500 E0
G1 F1200 X53.339 Y52.655 E0.02134
G1 X53.795 Y52.236 E0.05017
G1 X53.974 Y52.081 E0.0612
G1 X54.379 Y51.747 E0.08564
G1 X54.617 Y51.56 E0.09974
G1 X54.903 Y51.343 E0.11645
G1 X55.046 Y51.238 E0.12472
G1 X55.446 Y50.958 E0.14745
G1 X55.714 Y50.779 E0.16246
G1 X56.178 Y50.485 E0.18804
G1 X56.28 Y50.424 E0.19357
G1 X56.567 Y50.259 E0.20899
G1 X56.861 Y50.095 E0.22466
G1 X57.125 Y49.952 E0.23864
G1 X57.28 Y49.871 E0.24678
G1 X57.826 Y49.605 E0.27507
G1 X58.099 Y49.481 E0.28903
G1 X58.58 Y49.276 E0.31337
G1 X58.884 Y49.155 E0.32861
G1 X59.404 Y48.963 E0.35442
G1 X59.63 Y48.886 E0.36554
G1 X60.281 Y48.686 E0.39725
G1 X60.607 Y48.597 E0.41299
G1 X61.235 Y48.446 E0.44306
G1 X61.733 Y48.341 E0.46676
G1 X62.42 Y48.218 E0.49926
G1 X62.537 Y48.201 E0.50476
G1 X62.979 Y48.146 E0.5255
G1 X63.574 Y48.084 E0.55336
G1 X64.294 Y48.033 E0.58697
G1 X64.634 Y48.02 E0.60281
G1 X64.929 Y48.013 E0.61655
G1 X65.581 Y48.006 E0.64691
G1 X154.382 Y48.005 E4.78186
G1 X155.224 Y48.015 E4.82107
G1 X155.523 Y48.023 E4.835
G1 X155.723 Y48.031 E4.84432
G1 X156.042 Y48.048 E4.85919
G1 X156.259 Y48.063 E4.86932
G1 X156.761 Y48.108 E4.89279
G1 X157.246 Y48.165 E4.91553
G1 X157.508 Y48.202 E4.92785
G1 X157.946 Y48.273 E4.94851
G1 X158.177 Y48.315 E4.95945
G1 X158.462 Y48.371 E4.97297
G1 X159.092 Y48.515 E5.00306
G1 X159.332 Y48.577 E5.0146
G1 X159.724 Y48.685 E5.03354
G1 X160.006 Y48.77 E5.04725
G1 X160.24 Y48.844 E5.05868
G1 X160.678 Y48.993 E5.08022
G1 X160.868 Y49.062 E5.08964
G1 X161.215 Y49.195 E5.10694
G1 X161.424 Y49.279 E5.11743
G1 X161.723 Y49.404 E5.13252
G1 X161.92 Y49.49 E5.14253
G1 X162.366 Y49.697 E5.16542
G1 X162.641 Y49.832 E5.17969
G1 X163.159 Y50.103 E5.20691
G1 X163.372 Y50.222 E5.21827
G1 X163.723 Y50.427 E5.2372
G1 X163.917 Y50.545 E5.24777
G1 X164.673 Y51.048 E5.29005
G1 X165.275 Y51.486 E5.32472
G1 X165.972 Y52.038 E5.36612
G1 X166.242 Y52.27 E5.3827
G1 X166.738 Y52.723 E5.41398
G1 X167.012 Y52.995 E5.43195
G1 X167.264 Y53.253 E5.44875
G1 X167.947 Y54.021 E5.4966
G1 X168.417 Y54.602 E5.5314
G1 X168.834 Y55.152 E5.56354
G1 X168.954 Y55.321 E5.57319
G1 X169.138 Y55.587 E5.58825
G1 X169.218 Y55.707 E5.59497
G1 X169.528 Y56.201 E5.62212
G1 X169.688 Y56.471 E5.63674
G1 X169.962 Y56.962 E5.66292
G1 X170.065 Y57.158 E5.67323
G1 X170.205 Y57.432 E5.68756
G1 X170.281 Y57.587 E5.6956
G1 X170.42 Y57.882 E5.71078
G1 X170.519 Y58.1 E5.72193
G1 X170.74 Y58.624 E5.74841
G1 X170.865 Y58.942 E5.76432
G1 X171.052 Y59.452 E5.78962
G1 X171.141 Y59.716 E5.80259
G1 X171.379 Y60.524 E5.84181
G1 X171.463 Y60.855 E5.85771
G1 X171.564 Y61.292 E5.8786
G1 X171.685 Y61.866 E5.90591
G1 X171.839 Y62.785 E5.9493
G1 X171.898 Y63.278 E5.97242
G1 X171.941 Y63.789 E5.9963
G1 X171.96 Y64.097 E6.01067
G1 X171.98 Y64.612 E6.03467
G1 X171.995 Y65.724 E6.08645
G1 X171.993 Y154.472 E10.21893
G1 X171.983 Y155.234 E10.25441
G1 X171.975 Y155.538 E10.26857
G1 X171.962 Y155.857 E10.28344
G1 X171.927 Y156.387 E10.30817
G1 X171.902 Y156.667 E10.32126
G1 X171.84 Y157.211 E10.34676
G1 X171.808 Y157.44 E10.35753
G1 X171.747 Y157.826 E10.37572
G1 X171.67 Y158.25 E10.39579
G1 X171.626 Y158.472 E10.40633
G1 X171.488 Y159.079 E10.43531
G1 X171.374 Y159.511 E10.45612
G1 X171.252 Y159.935 E10.47666
G1 X171.182 Y160.161 E10.48768
G1 X171 Y160.698 E10.51408
G1 X170.881 Y161.022 E10.53015
G1 X170.645 Y161.611 E10.5597
G1 X170.523 Y161.892 E10.57396
G1 X170.307 Y162.358 E10.59788
G1 X170.172 Y162.633 E10.61214
G1 X169.891 Y163.17 E10.64037
G1 X169.781 Y163.366 E10.65083
G1 X169.54 Y163.777 E10.67302
G1 X169.39 Y164.022 E10.68639
G1 X169.286 Y164.187 E10.69548
G1 X168.942 Y164.701 E10.72427
G1 X168.737 Y164.989 E10.74074
G1 X168.399 Y165.439 E10.76694
G1 X168.205 Y165.684 E10.78149
G1 X167.796 Y166.17 E10.81107
G1 X167.601 Y166.389 E10.82473
G1 X167.254 Y166.762 E10.84845
G1 X167.002 Y167.015 E10.86507
G1 X166.676 Y167.332 E10.88625
G1 X166.192 Y167.775 E10.9168
G1 X166.01 Y167.932 E10.92799
G1 X165.604 Y168.266 E10.95247
G1 X165.374 Y168.446 E10.96607
G1 X164.997 Y168.73 E10.98805
G1 X164.556 Y169.041 E11.01318
G1 X164.345 Y169.182 E11.025
G1 X163.977 Y169.418 E11.04535
G1 X163.744 Y169.56 E11.05806
G1 X163.535 Y169.684 E11.06937
G1 X163.057 Y169.952 E11.09489
G1 X162.86 Y170.056 E11.10526
G1 X162.568 Y170.205 E11.12053
G1 X162.413 Y170.281 E11.12857
G1 X162.135 Y170.412 E11.14288
G1 X161.907 Y170.516 E11.15455
G1 X161.427 Y170.721 E11.17885
G1 X161.232 Y170.799 E11.18863
G1 X160.913 Y170.921 E11.20453
G1 X160.522 Y171.06 E11.22385
G1 X160.272 Y171.144 E11.23614
G1 X159.481 Y171.377 E11.27453
G1 X159.147 Y171.462 E11.29058
G1 X158.704 Y171.565 E11.31176
G1 X158.135 Y171.685 E11.33884
G1 X157.403 Y171.814 E11.37345
G1 X156.968 Y171.87 E11.39387
G1 X156.701 Y171.899 E11.40637
G1 X156.199 Y171.942 E11.42984
G1 X155.911 Y171.96 E11.44327
G1 X155.387 Y171.98 E11.46769
G1 X154.275 Y171.995 E11.51947
G1 X65.537 Y171.994 E15.65149
G1 X64.664 Y171.981 E15.69214
G1 X64.384 Y171.973 E15.70519
G1 X64.161 Y171.964 E15.71558
G1 X63.549 Y171.922 E15.74414
G1 X63.207 Y171.889 E15.76014
G1 X62.521 Y171.801 E15.79235
G1 X62.147 Y171.741 E15.80998
G1 X61.704 Y171.661 E15.83094
G1 X61.482 Y171.616 E15.84149
G1 X60.999 Y171.507 E15.86455
G1 X60.767 Y171.449 E15.87568
G1 X60.283 Y171.316 E15.89906
G1 X59.942 Y171.214 E15.91563
G1 X59.274 Y170.99 E15.94844
G1 X58.95 Y170.87 E15.96453
G1 X58.389 Y170.645 E15.99267
G1 X58.108 Y170.523 E16.00693
G1 X57.641 Y170.307 E16.03089
G1 X57.364 Y170.171 E16.04526
G1 X56.824 Y169.887 E16.07367
G1 X56.63 Y169.778 E16.08403
G1 X56.375 Y169.63 E16.09776
G1 X56.201 Y169.526 E16.1072
G1 X55.815 Y169.286 E16.12837
G1 X55.306 Y168.947 E16.15684
G1 X55.175 Y168.854 E16.16432
G1 X54.943 Y168.684 E16.17772
G1 X54.707 Y168.507 E16.19145
G1 X54.462 Y168.318 E16.20586
G1 X54.306 Y168.194 E16.21514
G1 X53.902 Y167.857 E16.23964
G1 X53.668 Y167.652 E16.25412
G1 X53.022 Y167.038 E16.29562
G1 X52.599 Y166.602 E16.32391
G1 X52.026 Y165.963 E16.36388
G1 X51.751 Y165.626 E16.38413
G1 X51.563 Y165.387 E16.39829
G1 X51.335 Y165.086 E16.41587
G1 X51.231 Y164.944 E16.42407
G1 X50.952 Y164.546 E16.4467
G1 X50.776 Y164.282 E16.46148
G1 X50.497 Y163.839 E16.48585
G1 X50.283 Y163.474 E16.50555
G1 X50.073 Y163.098 E16.52561
G1 X49.879 Y162.736 E16.54473
G1 X49.628 Y162.221 E16.57141
G1 X49.493 Y161.926 E16.58652
G1 X49.279 Y161.428 E16.61176
G1 X49.158 Y161.125 E16.62695
G1 X48.958 Y160.581 E16.65394
G1 X48.814 Y160.147 E16.67523
G1 X48.754 Y159.954 E16.68464
G1 X48.663 Y159.645 E16.69964
G1 X48.603 Y159.43 E16.71003
G1 X48.466 Y158.888 E16.73606
G1 X48.396 Y158.577 E16.75091
G1 X48.289 Y158.036 E16.77659
G1 X48.243 Y157.77 E16.78916
G1 X48.176 Y157.334 E16.8097
G1 X48.14 Y157.043 E16.82335
G1 X48.105 Y156.731 E16.83797
G1 X48.062 Y156.266 E16.85972
G1 X48.05 Y156.093 E16.86779
G1 X48.033 Y155.777 E16.88253
G1 X48.023 Y155.53 E16.89404
G1 X48.015 Y155.225 E16.90824
G1 X48.005 Y154.38 E16.94759
G1 X48.006 Y65.481 E21.0871
G1 X48.015 Y64.782 E21.11965
G1 X48.021 Y64.519 E21.1319
G1 X48.029 Y64.302 E21.14201
G1 X48.051 Y63.912 E21.1602
G1 X48.066 Y63.705 E21.16987
G1 X48.108 Y63.239 E21.19165
G1 X48.165 Y62.756 E21.2143
G1 X48.187 Y62.6 E21.22164
G1 X48.239 Y62.267 E21.23733
G1 X48.294 Y61.948 E21.2524
G1 X48.362 Y61.591 E21.26933
G1 X48.393 Y61.441 E21.27646
G1 X48.503 Y60.96 E21.29943
G1 X48.585 Y60.637 E21.31495
G1 X48.758 Y60.032 E21.34425
G1 X48.866 Y59.698 E21.3606
G1 X48.995 Y59.322 E21.37911
G1 X49.156 Y58.882 E21.40092
G1 X49.346 Y58.411 E21.42457
G1 X49.464 Y58.137 E21.43846
G1 X49.715 Y57.596 E21.46623
G1 X49.859 Y57.306 E21.48131
G1 X50.078 Y56.888 E21.50328
G1 X50.191 Y56.683 E21.51418
G1 X50.447 Y56.241 E21.53797
G1 X50.566 Y56.047 E21.54857
G1 X51.052 Y55.322 E21.58921
G1 X51.492 Y54.718 E21.624
G1 X52.036 Y54.031 E21.66481
G1 X52.266 Y53.763 E21.68125
G1 X52.695 Y53.292 E21.71092
G1 X53.01 Y52.974 E21.73176
G0 F6000 X53.288 Y53.261
G1 F1200 X53.617 Y52.942 E21.7531
G1 X54.057 Y52.539 E21.78088
G1 X54.236 Y52.384 E21.79191
G1 X54.626 Y52.062 E21.81546
G1 X54.864 Y51.875 E21.82955
G1 X55.139 Y51.666 E21.84564
G1 X55.282 Y51.561 E21.8539
G1 X55.669 Y51.29 E21.8759
G1 X55.937 Y51.111 E21.8909
G1 X56.383 Y50.829 E21.91547
G1 X56.762 Y50.608 E21.9359
G1 X57.056 Y50.444 E21.95158
G1 X57.311 Y50.306 E21.96508
G1 X57.466 Y50.225 E21.97322
G1 X57.991 Y49.969 E22.00042
G1 X58.264 Y49.845 E22.01438
G1 X58.728 Y49.647 E22.03787
G1 X59.032 Y49.526 E22.05311
G1 X59.533 Y49.341 E22.07798
G1 X59.759 Y49.264 E22.0891
G1 X60.386 Y49.072 E22.11963
G1 X60.712 Y48.983 E22.13536
G1 X61.317 Y48.837 E22.16434
G1 X61.815 Y48.732 E22.18804
G1 X62.478 Y48.614 E22.2194
G1 X62.595 Y48.597 E22.22491
G1 X63.02 Y48.544 E22.24485
G1 X63.615 Y48.482 E22.2727
G1 X64.309 Y48.433 E22.3051
G1 X64.649 Y48.42 E22.32094
G1 X64.933 Y48.413 E22.33417
G1 X65.581 Y48.406 E22.36435
G1 X154.382 Y48.405 E26.49929
G1 X155.219 Y48.415 E26.53827
G1 X155.507 Y48.422 E26.55169
G1 X155.707 Y48.43 E26.56101
G1 X156.014 Y48.447 E26.57532
G1 X156.231 Y48.462 E26.58545
G1 X156.723 Y48.506 E26.60845
G1 X157.19 Y48.561 E26.63035
G1 X157.452 Y48.598 E26.64267
G1 X157.877 Y48.667 E26.66272
G1 X158.1 Y48.708 E26.67328
G1 X158.385 Y48.764 E26.6868
G1 X158.992 Y48.902 E26.71579
G1 X159.232 Y48.964 E26.72733
G1 X159.614 Y49.069 E26.74578
G1 X159.885 Y49.151 E26.75896
G1 X160.119 Y49.225 E26.77039
G1 X160.541 Y49.369 E26.79115
G1 X160.731 Y49.438 E26.80056
G1 X161.066 Y49.566 E26.81726
G1 X161.275 Y49.65 E26.82775
G1 X161.563 Y49.77 E26.84228
G1 X161.76 Y49.856 E26.85229
G1 X162.19 Y50.056 E26.87437
G1 X162.465 Y50.191 E26.88863
G1 X162.964 Y50.452 E26.91486
G1 X163.177 Y50.571 E26.92622
G1 X163.515 Y50.769 E26.94446
G1 X163.709 Y50.887 E26.95503
G1 X164.437 Y51.372 E26.99576
G1 X165.039 Y51.81 E27.03043
G1 X165.711 Y52.341 E27.07031
G1 X165.981 Y52.573 E27.08689
G1 X166.459 Y53.01 E27.11704
G1 X166.726 Y53.274 E27.13453
G1 X166.978 Y53.532 E27.15132
G1 X167.636 Y54.272 E27.19743
G1 X168.106 Y54.853 E27.23223
G1 X168.508 Y55.383 E27.2632
G1 X168.628 Y55.552 E27.27285
G1 X168.805 Y55.809 E27.28739
G1 X168.885 Y55.929 E27.2941
G1 X169.184 Y56.405 E27.32028
G1 X169.344 Y56.675 E27.33489
G1 X169.608 Y57.148 E27.36011
G1 X169.711 Y57.344 E27.37042
G1 X169.845 Y57.608 E27.38421
G1 X169.921 Y57.763 E27.39225
G1 X170.055 Y58.047 E27.40687
G1 X170.154 Y58.265 E27.41802
G1 X170.368 Y58.77 E27.44356
G1 X170.493 Y59.088 E27.45947
G1 X170.673 Y59.58 E27.48386
G1 X170.762 Y59.844 E27.49684
G1 X170.991 Y60.623 E27.53464
G1 X171.075 Y60.954 E27.55054
G1 X171.173 Y61.375 E27.57067
G1 X171.294 Y61.949 E27.59799
G1 X171.442 Y62.834 E27.63977
G1 X171.5 Y63.32 E27.66256
G1 X171.542 Y63.813 E27.6856
G1 X171.561 Y64.121 E27.69997
G1 X171.58 Y64.618 E27.72313
G1 X171.595 Y65.724 E27.77463
G1 X171.593 Y154.467 E31.90688
G1 X171.583 Y155.229 E31.94236
G1 X171.575 Y155.522 E31.95601
G1 X171.562 Y155.841 E31.97088
G1 X171.529 Y156.352 E31.99472
G1 X171.504 Y156.632 E32.00781
G1 X171.444 Y157.156 E32.03237
G1 X171.412 Y157.385 E32.04314
G1 X171.353 Y157.757 E32.06068
G1 X171.278 Y158.172 E32.08031
G1 X171.234 Y158.394 E32.09085
G1 X171.1 Y158.979 E32.1188
G1 X170.989 Y159.404 E32.13925
G1 X170.955 Y159.526 E32.14515
G1 X170.869 Y159.816 E32.15923
G1 X170.799 Y160.042 E32.17025
G1 X170.624 Y160.561 E32.19575
G1 X170.505 Y160.885 E32.21183
G1 X170.278 Y161.451 E32.24022
G1 X170.156 Y161.732 E32.25449
G1 X169.948 Y162.182 E32.27757
G1 X169.813 Y162.457 E32.29183
G1 X169.542 Y162.974 E32.31902
G1 X169.432 Y163.17 E32.32948
G1 X169.196 Y163.572 E32.35119
G1 X169.051 Y163.809 E32.36412
G1 X168.947 Y163.974 E32.37321
G1 X168.616 Y164.469 E32.40093
G1 X168.411 Y164.757 E32.41739
G1 X168.085 Y165.19 E32.44263
G1 X167.891 Y165.435 E32.45718
G1 X167.498 Y165.904 E32.48568
G1 X167.303 Y166.123 E32.49933
G1 X166.966 Y166.484 E32.52233
G1 X166.723 Y166.728 E32.53836
G1 X166.397 Y167.045 E32.55953
G1 X165.931 Y167.472 E32.58897
G1 X165.749 Y167.629 E32.60016
G1 X165.358 Y167.951 E32.62374
G1 X165.128 Y168.131 E32.63734
G1 X164.759 Y168.409 E32.65886
G1 X164.333 Y168.708 E32.68309
G1 X164.122 Y168.849 E32.69491
G1 X163.867 Y169.015 E32.70908
G1 X163.54 Y169.216 E32.72695
G1 X163.331 Y169.34 E32.73826
G1 X162.871 Y169.598 E32.76282
G1 X162.674 Y169.702 E32.7732
G1 X162.392 Y169.845 E32.78792
G1 X162.237 Y169.921 E32.79596
G1 X161.969 Y170.048 E32.80977
G1 X161.741 Y170.152 E32.82144
G1 X161.279 Y170.35 E32.84484
G1 X161.084 Y170.428 E32.85462
G1 X160.776 Y170.546 E32.86998
G1 X160.394 Y170.681 E32.88884
G1 X160.144 Y170.765 E32.90112
G1 X159.382 Y170.99 E32.93812
G1 X159.048 Y171.075 E32.95417
G1 X158.621 Y171.174 E32.97458
G1 X158.052 Y171.294 E33.00166
G1 X157.347 Y171.418 E33.03499
G1 X156.925 Y171.472 E33.0548
G1 X156.658 Y171.501 E33.0673
G1 X156.174 Y171.542 E33.08992
G1 X155.886 Y171.56 E33.10336
G1 X155.381 Y171.58 E33.12689
G1 X154.275 Y171.595 E33.1784
G1 X65.543 Y171.594 E37.31013
G1 X64.67 Y171.581 E37.35079
G1 X64.178 Y171.564 E37.37371
G1 X63.587 Y171.524 E37.40129
G1 X63.245 Y171.491 E37.41729
G1 X62.584 Y171.406 E37.44832
G1 X62.21 Y171.346 E37.46596
G1 X61.783 Y171.269 E37.48616
G1 X61.561 Y171.224 E37.49671
G1 X61.096 Y171.119 E37.51891
G1 X60.864 Y171.061 E37.53004
G1 X60.397 Y170.932 E37.5526
G1 X60.056 Y170.83 E37.56918
G1 X59.412 Y170.615 E37.60079
G1 X59.088 Y170.495 E37.61688
G1 X58.549 Y170.278 E37.64394
G1 X58.268 Y170.156 E37.6582
G1 X57.817 Y169.948 E37.68133
G1 X57.54 Y169.812 E37.6957
G1 X57.02 Y169.538 E37.72307
G1 X56.826 Y169.429 E37.73343
G1 X56.58 Y169.287 E37.74665
G1 X56.198 Y169.055 E37.76746
G1 X56.028 Y168.948 E37.77682
G1 X55.538 Y168.62 E37.80427
G1 X55.183 Y168.364 E37.82465
G1 X54.947 Y168.187 E37.83839
G1 X54.711 Y168.005 E37.85227
G1 X54.555 Y167.881 E37.86155
G1 X54.166 Y167.556 E37.88515
G1 X53.932 Y167.351 E37.89964
G1 X53.309 Y166.759 E37.93965
G1 X52.886 Y166.323 E37.96794
G1 X52.334 Y165.707 E38.00646
G1 X52.066 Y165.379 E38.02618
G1 X51.878 Y165.14 E38.04034
G1 X51.657 Y164.849 E38.05735
G1 X51.553 Y164.707 E38.06555
G1 X51.285 Y164.324 E38.08732
G1 X51.109 Y164.06 E38.10209
G1 X50.84 Y163.634 E38.12555
G1 X50.633 Y163.279 E38.14469
G1 X50.423 Y162.903 E38.16474
G1 X50.234 Y162.551 E38.18334
G1 X49.991 Y162.055 E38.20906
G1 X49.856 Y161.76 E38.22417
G1 X49.651 Y161.28 E38.24847
G1 X49.53 Y160.977 E38.26366
G1 X49.336 Y160.453 E38.28968
G1 X49.28 Y160.288 E38.2978
G1 X49.136 Y159.835 E38.31993
G1 X49.048 Y159.537 E38.3344
G1 X48.988 Y159.322 E38.34479
G1 X48.857 Y158.801 E38.36981
G1 X48.787 Y158.49 E38.38465
G1 X48.683 Y157.968 E38.40943
G1 X48.637 Y157.702 E38.422
G1 X48.572 Y157.279 E38.44193
G1 X48.537 Y156.999 E38.45507
G1 X48.502 Y156.687 E38.46969
G1 X48.461 Y156.238 E38.49069
G1 X48.449 Y156.065 E38.49876
G1 X48.433 Y155.761 E38.51294
G1 X48.423 Y155.514 E38.52445
G1 X48.415 Y155.22 E38.53814
G1 X48.405 Y154.38 E38.57726
G1 X48.406 Y65.487 E42.71649
G1 X48.415 Y64.788 E42.74904
G1 X48.421 Y64.533 E42.76092
G1 X48.429 Y64.316 E42.77103
G1 X48.45 Y63.941 E42.78852
G1 X48.486 Y63.485 E42.80982
G1 X48.506 Y63.277 E42.81955
G1 X48.561 Y62.812 E42.84135
G1 X48.583 Y62.656 E42.84869
G1 X48.633 Y62.335 E42.86381
G1 X48.688 Y62.016 E42.87889
G1 X48.753 Y61.672 E42.89519
G1 X48.784 Y61.522 E42.90232
G1 X48.891 Y61.059 E42.92445
G1 X48.973 Y60.736 E42.93996
