;FLAVOR:Marlin
;TIME:5698
;Filament used: 6.905m
;Layer height: 0.28
;MINX:48.026
;MINY:48.026
;MINZ:0.28
;MAXX:171.974
;MAXY:171.974
;MAXZ:12.88
;Generated with Cura_SteamEngine 4.12.0
M140 S60
M105
M190 S60
M104 S200
M105
M109 S200
M82 ;absolute extrusion mode
; Ender 3 Custom Start G-code
G92 E0 ; Reset Extruder
G28 ; Home all axes
G1 Z2.0 F3000 ; Move Z Axis up little to prevent scratching of Heat Bed
G1 X0.1 Y20 Z0.3 F5000.0 ; Move to start position
G1 X0.1 Y200.0 Z0.3 F1500.0 E15 ; Draw the first line
G1 X0.4 Y200.0 Z0.3 F5000.0 ; Move to side a little
G1 X0.4 Y20 Z0.3 F1500.0 E30 ; Draw the second line
G92 E0 ; Reset Extruder
G1 Z2.0 F3000 ; Move Z Axis up little to prevent scratching of Heat Bed
G1 X5 Y20 Z0.3 F5000.0 ; Move over to prevent blob squish
G92 E0
G92 E0
G1 F1500 E-6.5
;LAYER_COUNT:46
;LAYER:0
M107
G0 F6000 X66.212 Y66.146 Z0.28
;TYPE:SKIRT
G1 F1500 E0
G1 F1200 X66.422 Y65.937 E0.0138
G1 X66.749 Y65.62 E0.035
G1 X67.857 Y64.568 E0.10615
G1 X68.495 Y63.977 E0.14664
G1 X68.728 Y63.767 E0.16125
G1 X69.214 Y63.343 E0.19128
G1 X70.235 Y62.472 E0.25377
G1 X70.996 Y61.84 E0.29983
G1 X71.234 Y61.647 E0.3141
G1 X71.652 Y61.321 E0.33878
G1 X72.923 Y60.346 E0.41338
G1 X73.565 Y59.869 E0.45062
G1 X73.778 Y59.715 E0.46286
G1 X74.309 Y59.341 E0.4931
G1 X75.539 Y58.496 E0.56259
G1 X76.193 Y58.059 E0.59921
G1 X76.446 Y57.895 E0.61325
G1 X77.037 Y57.524 E0.64574
G1 X78.285 Y56.762 E0.71383
G1 X79.005 Y56.335 E0.75281
G1 X79.262 Y56.187 E0.76662
G1 X79.788 Y55.895 E0.79463
G1 X81.114 Y55.176 E0.86487
G1 X81.798 Y54.816 E0.90086
G1 X82.063 Y54.681 E0.91471
G1 X82.701 Y54.368 E0.9478
G1 X84.021 Y53.74 E1.01587
G1 X84.788 Y53.388 E1.05516
G1 X85.046 Y53.273 E1.06832
G1 X85.628 Y53.025 E1.09778
G1 X86.969 Y52.469 E1.16537
G1 X87.757 Y52.155 E1.20487
G1 X88.042 Y52.047 E1.21906
G1 X88.657 Y51.822 E1.24956
G1 X90.045 Y51.331 E1.31811
G1 X90.817 Y51.07 E1.35606
G1 X91.085 Y50.984 E1.36916
G1 X91.739 Y50.782 E1.40104
G1 X93.132 Y50.371 E1.46867
G1 X93.911 Y50.152 E1.50634
G1 X94.193 Y50.076 E1.51994
G1 X94.877 Y49.904 E1.55279
G1 X96.298 Y49.565 E1.62081
G1 X97.168 Y49.369 E1.66234
G1 X97.484 Y49.303 E1.67737
G1 X97.994 Y49.204 E1.70156
G1 X99.512 Y48.924 E1.77344
G1 X100.316 Y48.788 E1.81141
G1 X100.577 Y48.747 E1.82371
G1 X101.134 Y48.668 E1.8499
G1 X102.721 Y48.46 E1.92443
G1 X103.534 Y48.365 E1.96255
G1 X103.83 Y48.335 E1.9764
G1 X104.492 Y48.276 E2.00735
G1 X105.946 Y48.164 E2.07525
G1 X106.781 Y48.111 E2.11421
G1 X107.044 Y48.098 E2.12647
G1 X107.569 Y48.078 E2.15094
G1 X109.192 Y48.036 E2.22654
G1 X109.929 Y48.026 E2.26086
G1 X110.252 Y48.026 E2.2759
G1 X110.87 Y48.037 E2.30468
G1 X112.426 Y48.079 E2.37716
G1 X113.238 Y48.113 E2.415
G1 X113.505 Y48.127 E2.42745
G1 X114.143 Y48.17 E2.45723
G1 X115.535 Y48.28 E2.52225
G1 X116.481 Y48.367 E2.56648
G1 X116.776 Y48.398 E2.5803
G1 X117.396 Y48.473 E2.60938
G1 X118.9 Y48.673 E2.68002
G1 X119.694 Y48.789 E2.71739
G1 X119.98 Y48.834 E2.73087
G1 X120.493 Y48.924 E2.75512
G1 X122.083 Y49.219 E2.83042
G1 X122.844 Y49.371 E2.86656
G1 X123.113 Y49.428 E2.87936
G1 X123.742 Y49.572 E2.90941
G1 X125.269 Y49.94 E2.98255
G1 X125.964 Y50.117 E3.01594
G1 X126.256 Y50.196 E3.03003
G1 X126.96 Y50.397 E3.06412
G1 X128.353 Y50.812 E3.1318
G1 X129.176 Y51.069 E3.17195
G1 X129.446 Y51.157 E3.18517
G1 X130.065 Y51.369 E3.21564
G1 X131.339 Y51.821 E3.27858
G1 X132.251 Y52.159 E3.32387
G1 X132.51 Y52.259 E3.3368
G1 X133.037 Y52.47 E3.36323
G1 X134.293 Y52.991 E3.42655
G1 X135.234 Y53.397 E3.47427
G1 X135.484 Y53.508 E3.48701
G1 X135.941 Y53.721 E3.51049
G1 X137.365 Y54.4 E3.58395
G1 X138.112 Y54.769 E3.62274
G1 X138.385 Y54.908 E3.63701
G1 X138.919 Y55.192 E3.66517
G1 X140.236 Y55.908 E3.73497
G1 X141.007 Y56.342 E3.77617
G1 X141.238 Y56.476 E3.78861
G1 X141.745 Y56.779 E3.81611
G1 X142.972 Y57.532 E3.88314
G1 X143.707 Y57.995 E3.92359
G1 X143.977 Y58.171 E3.9386
G1 X144.544 Y58.552 E3.97041
G1 X145.754 Y59.386 E4.03884
G1 X146.434 Y59.868 E4.07765
G1 X146.664 Y60.035 E4.09089
G1 X147.084 Y60.35 E4.11533
G1 X148.347 Y61.32 E4.18948
G1 X148.955 Y61.8 E4.22556
G1 X149.181 Y61.984 E4.23913
G1 X149.706 Y62.423 E4.27099
G1 X150.884 Y63.432 E4.34322
G1 X151.493 Y63.969 E4.38102
G1 X151.678 Y64.136 E4.39263
G1 X152.162 Y64.585 E4.42337
G1 X153.193 Y65.567 E4.48967
G1 X153.861 Y66.22 E4.53317
G1 X154.063 Y66.422 E4.54647
G1 X154.38 Y66.749 E4.56768
G1 X155.432 Y67.857 E4.63882
G1 X156.023 Y68.495 E4.67931
G1 X156.242 Y68.739 E4.69458
G1 X156.653 Y69.211 E4.72372
G1 X157.624 Y70.35 E4.79342
G1 X158.16 Y70.996 E4.8325
G1 X158.35 Y71.231 E4.84658
G1 X158.681 Y71.654 E4.87159
G1 X159.654 Y72.923 E4.94605
G1 X160.131 Y73.565 E4.98329
G1 X160.283 Y73.775 E4.99536
G1 X160.652 Y74.299 E5.0252
G1 X161.506 Y75.543 E5.09546
G1 X161.942 Y76.196 E5.13203
G1 X162.095 Y76.432 E5.14512
G1 X162.478 Y77.04 E5.17858
G1 X163.235 Y78.28 E5.24623
G1 X163.662 Y78.999 E5.28517
G1 X163.813 Y79.262 E5.29929
G1 X164.102 Y79.782 E5.32699
G1 X164.828 Y81.119 E5.39784
G1 X165.187 Y81.802 E5.43376
G1 X165.319 Y82.062 E5.44734
G1 X165.634 Y82.704 E5.48064
G1 X166.258 Y84.016 E5.54829
G1 X166.61 Y84.782 E5.58754
G1 X166.727 Y85.045 E5.60095
G1 X166.977 Y85.63 E5.63057
G1 X167.474 Y86.829 E5.69101
G1 X167.846 Y87.763 E5.73782
G1 X167.948 Y88.029 E5.75109
G1 X168.178 Y88.657 E5.78223
G1 X168.667 Y90.041 E5.85058
G1 X168.928 Y90.812 E5.88848
G1 X169.016 Y91.084 E5.90179
G1 X169.219 Y91.741 E5.93381
G1 X169.628 Y93.128 E6.00115
G1 X169.847 Y93.906 E6.03878
G1 X169.924 Y94.192 E6.05257
G1 X170.096 Y94.877 E6.08546
G1 X170.436 Y96.303 E6.15372
G1 X170.628 Y97.157 E6.19448
G1 X170.689 Y97.447 E6.20828
G1 X170.796 Y97.994 E6.23423
G1 X171.076 Y99.51 E6.30602
G1 X171.212 Y100.313 E6.34394
G1 X171.253 Y100.576 E6.35633
G1 X171.333 Y101.134 E6.38258
G1 X171.521 Y102.567 E6.44988
G1 X171.634 Y103.532 E6.49512
G1 X171.665 Y103.829 E6.50903
G1 X171.724 Y104.492 E6.54002
G1 X171.836 Y105.945 E6.60788
G1 X171.889 Y106.779 E6.64679
G1 X171.902 Y107.043 E6.6591
G1 X171.922 Y107.568 E6.68356
G1 X171.964 Y109.192 E6.75921
G1 X171.974 Y109.928 E6.79348
G1 X171.974 Y110.251 E6.80852
G1 X171.963 Y110.869 E6.83731
G1 X171.921 Y112.426 E6.90983
G1 X171.887 Y113.238 E6.94768
G1 X171.873 Y113.507 E6.96022
G1 X171.83 Y114.141 E6.98981
G1 X171.707 Y115.679 E7.06165
G1 X171.633 Y116.481 E7.09916
G1 X171.602 Y116.779 E7.11311
G1 X171.527 Y117.394 E7.14196
G1 X171.327 Y118.9 E7.2127
G1 X171.211 Y119.694 E7.25006
G1 X171.165 Y119.985 E7.26378
G1 X171.077 Y120.491 E7.2877
G1 X170.781 Y122.083 E7.3631
G1 X170.629 Y122.844 E7.39923
G1 X170.576 Y123.092 E7.41104
G1 X170.428 Y123.75 E7.44244
G1 X170.093 Y125.137 E7.50889
G1 X169.89 Y125.935 E7.54723
G1 X169.813 Y126.223 E7.56111
G1 X169.604 Y126.957 E7.59665
G1 X169.188 Y128.353 E7.66447
G1 X168.931 Y129.176 E7.70462
G1 X168.841 Y129.452 E7.71814
G1 X168.632 Y130.061 E7.74812
G1 X168.18 Y131.336 E7.81111
G1 X167.841 Y132.251 E7.85655
G1 X167.75 Y132.488 E7.86837
G1 X167.528 Y133.044 E7.89625
G1 X166.949 Y134.434 E7.96636
G1 X166.607 Y135.227 E8.00657
G1 X166.481 Y135.507 E8.02087
G1 X166.281 Y135.937 E8.04295
G1 X165.6 Y137.365 E8.11662
G1 X165.231 Y138.112 E8.15542
G1 X165.087 Y138.394 E8.17016
G1 X164.81 Y138.915 E8.19764
G1 X164.094 Y140.232 E8.26744
G1 X163.661 Y141.002 E8.30857
G1 X163.52 Y141.244 E8.32161
G1 X163.221 Y141.745 E8.34878
G1 X162.468 Y142.972 E8.41582
G1 X162.005 Y143.707 E8.45627
G1 X161.838 Y143.964 E8.47054
G1 X161.445 Y144.55 E8.50339
G1 X160.614 Y145.754 E8.57151
G1 X160.132 Y146.434 E8.61032
G1 X159.965 Y146.664 E8.62356
G1 X159.65 Y147.084 E8.64801
G1 X158.776 Y148.224 E8.71489
G1 X158.197 Y148.958 E8.75843
G1 X158.027 Y149.168 E8.77101
G1 X157.574 Y149.711 E8.80393
G1 X156.574 Y150.877 E8.87546
G1 X156.037 Y151.487 E8.9133
G1 X155.854 Y151.689 E8.926
G1 X155.413 Y152.164 E8.95618
G1 X154.423 Y153.204 E9.02304
G1 X153.782 Y153.86 E9.06574
G1 X153.578 Y154.063 E9.07914
G1 X153.247 Y154.384 E9.10061
G1 X152.144 Y155.43 E9.1714
G1 X151.505 Y156.022 E9.21196
G1 X151.271 Y156.233 E9.22663
G1 X150.785 Y156.657 E9.25666
G1 X149.657 Y157.618 E9.32566
G1 X149.011 Y158.155 E9.36478
G1 X148.765 Y158.354 E9.37951
G1 X148.346 Y158.681 E9.40426
G1 X147.077 Y159.654 E9.47872
G1 X146.435 Y160.131 E9.51596
G1 X146.225 Y160.283 E9.52804
G1 X145.701 Y160.652 E9.55788
G1 X144.457 Y161.506 E9.62814
G1 X143.804 Y161.942 E9.6647
G1 X143.56 Y162.101 E9.67826
G1 X142.962 Y162.476 E9.71113
G1 X141.714 Y163.238 E9.77922
G1 X140.994 Y163.665 E9.8182
G1 X140.764 Y163.798 E9.83057
G1 X140.212 Y164.106 E9.86
G1 X138.881 Y164.828 E9.93051
G1 X138.198 Y165.187 E9.96644
G1 X137.938 Y165.319 E9.98002
G1 X137.296 Y165.634 E10.01332
G1 X135.979 Y166.26 E10.08122
G1 X135.212 Y166.612 E10.12051
G1 X134.962 Y166.723 E10.13325
G1 X134.37 Y166.977 E10.16325
G1 X133.171 Y167.474 E10.22368
G1 X132.237 Y167.846 E10.2705
G1 X131.971 Y167.948 E10.28376
G1 X131.343 Y168.178 E10.3149
G1 X129.955 Y168.669 E10.38346
G1 X129.183 Y168.93 E10.4214
G1 X128.92 Y169.015 E10.43428
G1 X128.259 Y169.219 E10.46649
G1 X126.868 Y169.629 E10.53401
G1 X126.089 Y169.848 E10.57169
G1 X125.812 Y169.923 E10.58505
G1 X125.123 Y170.096 E10.61813
G1 X123.692 Y170.437 E10.68663
G1 X122.823 Y170.632 E10.7281
G1 X122.537 Y170.692 E10.74171
G1 X122.006 Y170.796 E10.76691
G1 X120.488 Y171.076 E10.83878
G1 X119.684 Y171.212 E10.87675
G1 X119.427 Y171.252 E10.88886
G1 X118.866 Y171.333 E10.91526
G1 X117.279 Y171.54 E10.98978
G1 X116.466 Y171.635 E11.02789
G1 X116.172 Y171.665 E11.04165
G1 X115.508 Y171.724 E11.0727
G1 X114.054 Y171.836 E11.1406
G1 X113.219 Y171.889 E11.17956
G1 X112.956 Y171.902 E11.19182
G1 X112.431 Y171.922 E11.21628
G1 X110.808 Y171.964 E11.29188
G1 X110.071 Y171.974 E11.3262
G1 X109.748 Y171.974 E11.34124
G1 X109.131 Y171.963 E11.36998
G1 X107.575 Y171.921 E11.44246
G1 X106.762 Y171.887 E11.48035
G1 X106.493 Y171.873 E11.49289
G1 X105.858 Y171.83 E11.52253
G1 X104.324 Y171.708 E11.59418
G1 X103.521 Y171.634 E11.63173
G1 X103.221 Y171.602 E11.64578
G1 X102.605 Y171.527 E11.67468
G1 X101.103 Y171.328 E11.74523
G1 X100.308 Y171.212 E11.78264
G1 X100.015 Y171.165 E11.79646
G1 X99.508 Y171.076 E11.82042
G1 X97.921 Y170.781 E11.89559
G1 X97.159 Y170.629 E11.93177
G1 X96.908 Y170.576 E11.94371
G1 X96.256 Y170.429 E11.97484
G1 X94.718 Y170.057 E12.04852
G1 X94.023 Y169.879 E12.08192
G1 X93.745 Y169.804 E12.09533
G1 X93.041 Y169.603 E12.12942
G1 X91.652 Y169.189 E12.19691
G1 X90.828 Y168.932 E12.2371
G1 X90.548 Y168.841 E12.25081
G1 X89.936 Y168.631 E12.28094
G1 X88.513 Y168.125 E12.35127
G1 X87.753 Y167.843 E12.38901
G1 X87.512 Y167.75 E12.40104
G1 X86.96 Y167.529 E12.42873
G1 X85.561 Y166.947 E12.49928
G1 X84.767 Y166.604 E12.53956
G1 X84.493 Y166.481 E12.55354
G1 X84.06 Y166.279 E12.57579
G1 X82.641 Y165.603 E12.64898
G1 X81.893 Y165.234 E12.68782
G1 X81.606 Y165.087 E12.70283
G1 X81.082 Y164.808 E12.73048
G1 X79.765 Y164.092 E12.80028
G1 X78.994 Y163.658 E12.84148
G1 X78.774 Y163.53 E12.85333
G1 X78.255 Y163.221 E12.88145
G1 X77.034 Y162.472 E12.94815
G1 X76.298 Y162.009 E12.98864
G1 X76.022 Y161.829 E13.00398
G1 X75.456 Y161.449 E13.03573
G1 X74.243 Y160.613 E13.10433
G1 X73.562 Y160.13 E13.1432
G1 X73.322 Y159.955 E13.15703
G1 X72.916 Y159.65 E13.18068
G1 X71.776 Y158.776 E13.24757
G1 X71.042 Y158.197 E13.2911
G1 X70.818 Y158.015 E13.30454
G1 X70.293 Y157.577 E13.33638
G1 X69.123 Y156.574 E13.40813
G1 X68.513 Y156.037 E13.44598
G1 X68.321 Y155.864 E13.45801
G1 X67.834 Y155.413 E13.48892
G1 X66.79 Y154.418 E13.55607
G1 X66.134 Y153.776 E13.59881
G1 X65.937 Y153.578 E13.61182
G1 X65.616 Y153.247 E13.63329
G1 X64.57 Y152.144 E13.70407
G1 X63.978 Y151.505 E13.74463
G1 X63.758 Y151.26 E13.75997
G1 X63.347 Y150.788 E13.78911
G1 X62.382 Y149.657 E13.85834
G1 X61.845 Y149.011 E13.89745
G1 X61.649 Y148.768 E13.91199
G1 X61.318 Y148.345 E13.937
G1 X60.451 Y147.216 E14.00328
G1 X59.868 Y146.433 E14.04874
G1 X59.717 Y146.225 E14.06071
G1 X59.345 Y145.697 E14.09078
G1 X58.492 Y144.453 E14.16102
G1 X58.057 Y143.801 E14.19752
G1 X57.909 Y143.574 E14.21013
G1 X57.522 Y142.959 E14.24397
G1 X56.769 Y141.725 E14.31128
G1 X56.342 Y141.007 E14.35018
G1 X56.196 Y140.755 E14.36374
G1 X55.897 Y140.218 E14.39236
G1 X55.168 Y138.876 E14.46348
G1 X54.81 Y138.194 E14.49934
G1 X54.677 Y137.931 E14.51307
G1 X54.366 Y137.296 E14.54599
G1 X53.744 Y135.989 E14.61339
G1 X53.392 Y135.224 E14.6526
G1 X53.27 Y134.949 E14.66661
G1 X53.022 Y134.366 E14.69611
G1 X52.468 Y133.025 E14.76367
G1 X52.155 Y132.238 E14.80311
G1 X52.057 Y131.983 E14.81583
G1 X51.822 Y131.343 E14.84758
G1 X51.334 Y129.963 E14.91574
G1 X51.073 Y129.193 E14.95359
G1 X50.982 Y128.911 E14.96739
G1 X50.781 Y128.259 E14.99916
G1 X50.373 Y126.875 E15.06635
G1 X50.154 Y126.098 E15.10394
G1 X50.075 Y125.805 E15.11807
G1 X49.902 Y125.116 E15.15115
G1 X49.564 Y123.693 E15.21925
G1 X49.369 Y122.824 E15.26072
G1 X49.313 Y122.558 E15.27338
G1 X49.204 Y122.006 E15.29958
G1 X48.925 Y120.492 E15.37126
G1 X48.789 Y119.69 E15.40914
G1 X48.747 Y119.421 E15.42182
G1 X48.667 Y118.866 E15.44793
G1 X48.479 Y117.433 E15.51523
G1 X48.366 Y116.471 E15.56033
G1 X48.335 Y116.17 E15.57442
G1 X48.276 Y115.508 E15.60537
G1 X48.164 Y114.055 E15.67323
G1 X48.111 Y113.222 E15.71209
G1 X48.098 Y112.957 E15.72445
G1 X48.078 Y112.432 E15.74891
G1 X48.036 Y110.809 E15.82451
G1 X48.026 Y110.074 E15.85874
G1 X48.026 Y109.751 E15.87378
G1 X48.037 Y109.13 E15.9027
G1 X48.079 Y107.572 E15.97527
G1 X48.113 Y106.761 E16.01307
G1 X48.127 Y106.495 E16.02547
G1 X48.17 Y105.858 E16.0552
G1 X48.293 Y104.319 E16.12709
G1 X48.367 Y103.518 E16.16455
G1 X48.398 Y103.224 E16.17832
G1 X48.473 Y102.605 E16.20735
G1 X48.673 Y101.097 E16.27818
G1 X48.789 Y100.304 E16.3155
G1 X48.834 Y100.02 E16.32889
G1 X48.923 Y99.508 E16.35309
G1 X49.189 Y98.07 E16.42118
G1 X49.372 Y97.154 E16.46468
G1 X49.428 Y96.887 E16.47738
G1 X49.573 Y96.252 E16.50771
G1 X49.939 Y94.741 E16.58011
G1 X50.115 Y94.047 E16.61344
G1 X50.196 Y93.744 E16.62805
G1 X50.396 Y93.042 E16.66204
G1 X50.813 Y91.643 E16.73001
G1 X51.07 Y90.821 E16.77012
G1 X51.157 Y90.554 E16.78319
G1 X51.368 Y89.938 E16.81351
G1 X51.878 Y88.502 E16.88447
G1 X52.16 Y87.744 E16.92213
G1 X52.259 Y87.49 E16.93482
G1 X52.472 Y86.959 E16.96146
G1 X53.052 Y85.565 E17.03177
G1 X53.394 Y84.772 E17.07198
G1 X53.508 Y84.516 E17.08503
G1 X53.719 Y84.062 E17.10834
G1 X54.402 Y82.629 E17.18226
G1 X54.771 Y81.883 E17.22101
G1 X54.908 Y81.615 E17.23503
G1 X55.19 Y81.084 E17.26302
G1 X55.904 Y79.771 E17.33262
G1 X56.336 Y79.002 E17.37369
G1 X56.489 Y78.738 E17.3879
G1 X56.779 Y78.255 E17.41413
G1 X57.535 Y77.022 E17.48148
G1 X57.998 Y76.288 E17.52189
G1 X58.165 Y76.033 E17.53608
G1 X58.556 Y75.45 E17.56877
G1 X59.385 Y74.248 E17.63676
G1 X59.866 Y73.569 E17.6755
G1 X60.025 Y73.35 E17.68811
G1 X60.352 Y72.914 E17.71348
G1 X61.327 Y71.645 E17.788
G1 X61.798 Y71.048 E17.82341
G1 X61.974 Y70.831 E17.83642
G1 X62.426 Y70.289 E17.86928
G1 X63.432 Y69.116 E17.94124
G1 X63.969 Y68.507 E17.97905
G1 X64.147 Y68.311 E17.99137
G1 X64.588 Y67.836 E18.02155
G1 X65.572 Y66.802 E18.08802
G1 X66.212 Y66.146 E18.13069
G0 F6000 X66.499 Y66.426
G1 F1200 X66.701 Y66.224 E18.144
G1 X67.025 Y65.91 E18.16501
G1 X68.129 Y64.862 E18.23589
G1 X68.767 Y64.271 E18.27638
G1 X68.991 Y64.068 E18.29046
G1 X69.473 Y63.648 E18.32023
G1 X70.605 Y62.683 E18.38949
G1 X71.251 Y62.147 E18.42858
G1 X71.481 Y61.962 E18.44232
G1 X71.896 Y61.638 E18.46684
G1 X73.161 Y60.667 E18.54109
G1 X73.803 Y60.19 E18.57834
G1 X74.009 Y60.041 E18.59018
G1 X74.535 Y59.67 E18.62015
G1 X75.761 Y58.828 E18.6894
G1 X76.415 Y58.391 E18.72603
G1 X76.659 Y58.233 E18.73956
G1 X77.245 Y57.865 E18.77178
G1 X78.489 Y57.106 E18.83964
G1 X79.209 Y56.679 E18.87862
G1 X79.457 Y56.536 E18.89195
G1 X79.979 Y56.246 E18.91976
G1 X81.3 Y55.53 E18.98972
G1 X81.984 Y55.17 E19.02571
G1 X82.24 Y55.04 E19.03908
G1 X82.874 Y54.729 E19.07196
G1 X84.188 Y54.103 E19.13974
G1 X84.955 Y53.751 E19.17903
G1 X85.203 Y53.641 E19.19167
G1 X85.781 Y53.394 E19.22094
G1 X87.117 Y52.841 E19.28826
G1 X87.905 Y52.527 E19.32776
G1 X88.179 Y52.422 E19.34143
G1 X88.79 Y52.199 E19.37171
G1 X90.173 Y51.71 E19.44002
