;FLAVOR:Marlin
;TIME:7704
;Filament used: 9.52701m
;Layer height: 0.28
;MINX:49
;MINY:49
;MINZ:0.28
;MAXX:171
;MAXY:171
;MAXZ:15.12
;Generated with Cura_SteamEngine 4.12.0
M140 S60
M105
M190 S60
M104 S200
M105
M109 S200
M82 ;absolute extrusion mode
; Ender 3 Custom Start G-code
G92 E0 ; Reset Extruder
G28 ; Home all axes
G1 Z2.0 F3000 ; Move Z Axis up little to prevent scratching of Heat Bed
G1 X0.1 Y20 Z0.3 F5000.0 ; Move to start position
G1 X0.1 Y200.0 Z0.3 F1500.0 E15 ; Draw the first line
G1 X0.4 Y200.0 Z0.3 F5000.0 ; Move to side a little
G1 X0.4 Y20 Z0.3 F1500.0 E30 ; Draw the second line
G92 E0 ; Reset Extruder
G1 Z2.0 F3000 ; Move Z Axis up little to prevent scratching of Heat Bed
G1 X5 Y20 Z0.3 F5000.0 ; Move over to prevent blob squish
G92 E0
G92 E0
G1 F1500 E-6.5
;LAYER_COUNT:54
;LAYER:0
M107
G0 F6000 X53.749 Y53.64 Z0.28
;TYPE:SKIRT
G1 F1500 E0
G1 F1200 X54.005 Y53.392 E0.0166
G1 X54.458 Y52.978 E0.04517
G1 X54.57 Y52.881 E0.05207
G1 X54.992 Y52.533 E0.07754
G1 X55.314 Y52.281 E0.09658
G1 X55.916 Y51.842 E0.13127
G1 X56.3 Y51.589 E0.15269
G1 X56.637 Y51.376 E0.17125
G1 X57.125 Y51.085 E0.19771
G1 X57.246 Y51.017 E0.20417
G1 X57.816 Y50.718 E0.23414
G1 X58.171 Y50.545 E0.25253
G1 X58.71 Y50.3 E0.2801
G1 X58.826 Y50.251 E0.28596
G1 X59.309 Y50.06 E0.31015
G1 X59.657 Y49.932 E0.32741
G1 X60.266 Y49.728 E0.35732
G1 X60.441 Y49.675 E0.36583
G1 X60.954 Y49.533 E0.39062
G1 X61.285 Y49.45 E0.40651
G1 X61.788 Y49.337 E0.43052
G1 X61.932 Y49.308 E0.43736
G1 X62.544 Y49.202 E0.46628
G1 X62.928 Y49.147 E0.48434
G1 X63.553 Y49.076 E0.51363
G1 X63.682 Y49.065 E0.51966
G1 X64.201 Y49.033 E0.54387
G1 X64.729 Y49.013 E0.56848
G1 X65.011 Y49.006 E0.58161
G1 X65.555 Y49 E0.60694
G1 X154.293 Y49 E4.73896
G1 X155.33 Y49.014 E4.78725
G1 X155.92 Y49.039 E4.81474
G1 X156.284 Y49.064 E4.83173
G1 X156.854 Y49.118 E4.85839
G1 X156.986 Y49.134 E4.86459
G1 X157.484 Y49.206 E4.88802
G1 X157.865 Y49.27 E4.90601
G1 X158.629 Y49.426 E4.94231
G1 X158.782 Y49.463 E4.94964
G1 X159.214 Y49.577 E4.97045
G1 X159.54 Y49.67 E4.98623
G1 X160.153 Y49.865 E5.01619
G1 X160.336 Y49.929 E5.02521
G1 X160.745 Y50.081 E5.04553
G1 X161.059 Y50.205 E5.06125
G1 X161.696 Y50.48 E5.09356
G1 X161.845 Y50.55 E5.10123
G1 X162.332 Y50.794 E5.12659
G1 X162.663 Y50.97 E5.14404
G1 X163.138 Y51.238 E5.16944
G1 X163.277 Y51.321 E5.17698
G1 X163.747 Y51.617 E5.20284
G1 X164.033 Y51.808 E5.21886
G1 X164.583 Y52.201 E5.25033
G1 X164.725 Y52.309 E5.25864
G1 X165.108 Y52.614 E5.28144
G1 X165.372 Y52.834 E5.29744
G1 X165.788 Y53.199 E5.32321
G1 X165.917 Y53.318 E5.33138
G1 X166.362 Y53.751 E5.36029
G1 X166.606 Y54.003 E5.37663
G1 X166.986 Y54.417 E5.40279
G1 X167.083 Y54.528 E5.40966
G1 X167.461 Y54.985 E5.43727
G1 X167.717 Y55.312 E5.45661
G1 X168.084 Y55.808 E5.48534
G1 X168.139 Y55.887 E5.48983
G1 X168.408 Y56.293 E5.5125
G1 X168.623 Y56.633 E5.53123
G1 X168.954 Y57.191 E5.56145
G1 X169.017 Y57.305 E5.56751
G1 X169.261 Y57.773 E5.59209
G1 X169.437 Y58.131 E5.61066
G1 X169.699 Y58.707 E5.64013
G1 X169.745 Y58.816 E5.64564
G1 X169.933 Y59.29 E5.66938
G1 X170.066 Y59.651 E5.68729
G1 X170.272 Y60.266 E5.71749
G1 X170.325 Y60.441 E5.72601
G1 X170.465 Y60.946 E5.75041
G1 X170.548 Y61.276 E5.76626
G1 X170.661 Y61.773 E5.78999
G1 X170.69 Y61.916 E5.79678
G1 X170.796 Y62.53 E5.8258
G1 X170.85 Y62.904 E5.84339
G1 X170.923 Y63.543 E5.87334
G1 X170.935 Y63.684 E5.87993
G1 X170.967 Y64.199 E5.90396
G1 X170.987 Y64.725 E5.92847
G1 X170.994 Y65.005 E5.94151
G1 X171 Y65.541 E5.96647
G1 X170.999 Y154.457 E10.10677
G1 X170.986 Y155.33 E10.14743
G1 X170.962 Y155.904 E10.17418
G1 X170.938 Y156.261 E10.19084
G1 X170.882 Y156.858 E10.21876
G1 X170.865 Y156.997 E10.22528
G1 X170.789 Y157.513 E10.24957
G1 X170.725 Y157.888 E10.26728
G1 X170.592 Y158.545 E10.29849
G1 X170.555 Y158.703 E10.30605
G1 X170.425 Y159.204 E10.33015
G1 X170.332 Y159.531 E10.34598
G1 X170.135 Y160.153 E10.37636
G1 X170.071 Y160.336 E10.38539
G1 X169.921 Y160.739 E10.40541
G1 X169.798 Y161.051 E10.42103
G1 X169.519 Y161.698 E10.45384
G1 X169.448 Y161.849 E10.46161
G1 X169.212 Y162.322 E10.48622
G1 X169.037 Y162.652 E10.50361
G1 X168.751 Y163.157 E10.53064
G1 X168.667 Y163.297 E10.53824
G1 X168.368 Y163.769 E10.56426
G1 X168.176 Y164.055 E10.5803
G1 X167.821 Y164.553 E10.60877
G1 X167.713 Y164.696 E10.61712
G1 X167.388 Y165.106 E10.64148
G1 X167.174 Y165.363 E10.65705
G1 X166.792 Y165.797 E10.68398
G1 X166.667 Y165.932 E10.69254
G1 X166.278 Y166.333 E10.71856
G1 X166.032 Y166.573 E10.73456
G1 X165.559 Y167.007 E10.76445
G1 X165.438 Y167.112 E10.77191
G1 X165.023 Y167.455 E10.79698
G1 X164.711 Y167.7 E10.81545
G1 X164.238 Y168.052 E10.84291
G1 X164.144 Y168.118 E10.84826
G1 X163.665 Y168.435 E10.875
G1 X163.33 Y168.645 E10.89341
G1 X162.817 Y168.948 E10.92116
G1 X162.696 Y169.015 E10.9276
G1 X162.219 Y169.264 E10.95265
G1 X161.867 Y169.437 E10.97091
G1 X161.246 Y169.719 E11.00267
G1 X161.126 Y169.769 E11.00873
G1 X160.709 Y169.933 E11.02959
G1 X160.36 Y170.062 E11.04692
G1 X159.734 Y170.272 E11.07766
G1 X159.559 Y170.325 E11.08618
G1 X159.046 Y170.467 E11.11096
G1 X158.715 Y170.55 E11.12685
G1 X158.212 Y170.663 E11.15086
G1 X158.068 Y170.692 E11.1577
G1 X157.456 Y170.798 E11.18662
G1 X157.072 Y170.853 E11.20468
G1 X156.447 Y170.924 E11.23397
G1 X156.318 Y170.935 E11.24
G1 X155.799 Y170.967 E11.26421
G1 X155.271 Y170.987 E11.28882
G1 X154.989 Y170.994 E11.30195
G1 X154.445 Y171 E11.32728
G1 X65.543 Y170.999 E15.46693
G1 X64.67 Y170.986 E15.50759
G1 X64.08 Y170.961 E15.53509
G1 X63.716 Y170.936 E15.55208
G1 X63.146 Y170.882 E15.57874
G1 X63.014 Y170.866 E15.58493
G1 X62.483 Y170.789 E15.60991
G1 X62.103 Y170.724 E15.62786
G1 X61.439 Y170.589 E15.65941
G1 X61.286 Y170.553 E15.66673
G1 X60.796 Y170.425 E15.69032
G1 X60.469 Y170.332 E15.70615
G1 X59.866 Y170.142 E15.73558
G1 X59.679 Y170.077 E15.7448
G1 X59.234 Y169.912 E15.7669
G1 X58.924 Y169.789 E15.78243
G1 X58.304 Y169.52 E15.8139
G1 X58.155 Y169.45 E15.82157
G1 X57.668 Y169.206 E15.84693
G1 X57.337 Y169.03 E15.86439
G1 X56.862 Y168.762 E15.88978
G1 X56.723 Y168.679 E15.89732
G1 X56.253 Y168.383 E15.92319
G1 X55.967 Y168.192 E15.9392
G1 X55.399 Y167.785 E15.97174
G1 X55.255 Y167.675 E15.98017
G1 X54.896 Y167.39 E16.00152
G1 X54.634 Y167.172 E16.01739
G1 X54.212 Y166.801 E16.04355
G1 X54.083 Y166.682 E16.05173
G1 X53.638 Y166.249 E16.08064
G1 X53.394 Y165.997 E16.09697
G1 X53.001 Y165.568 E16.12406
G1 X52.9 Y165.452 E16.13122
G1 X52.533 Y165.008 E16.15805
G1 X52.281 Y164.686 E16.17709
G1 X51.842 Y164.084 E16.21178
G1 X51.596 Y163.713 E16.23251
G1 X51.383 Y163.377 E16.25103
G1 X51.066 Y162.842 E16.27999
G1 X50.998 Y162.72 E16.28649
G1 X50.723 Y162.194 E16.31413
G1 X50.552 Y161.844 E16.33227
G1 X50.299 Y161.287 E16.36076
G1 X50.248 Y161.166 E16.36687
G1 X50.059 Y160.689 E16.39076
G1 X49.93 Y160.338 E16.40817
G1 X49.726 Y159.726 E16.43821
G1 X49.674 Y159.554 E16.44658
G1 X49.535 Y159.054 E16.47074
G1 X49.451 Y158.72 E16.48678
G1 X49.333 Y158.194 E16.51188
G1 X49.305 Y158.054 E16.51853
G1 X49.202 Y157.457 E16.54674
G1 X49.147 Y157.073 E16.5648
G1 X49.075 Y156.44 E16.59447
G1 X49.064 Y156.31 E16.60054
G1 X49.033 Y155.801 E16.62429
G1 X49.013 Y155.275 E16.6488
G1 X49.006 Y154.99 E16.66207
G1 X49 Y154.445 E16.68745
G1 X49.001 Y65.533 E20.82757
G1 X49.015 Y64.647 E20.86883
G1 X49.039 Y64.073 E20.89558
G1 X49.063 Y63.721 E20.91201
G1 X49.118 Y63.145 E20.93895
G1 X49.134 Y63.013 E20.94514
G1 X49.212 Y62.478 E20.97032
G1 X49.277 Y62.099 E20.98822
G1 X49.411 Y61.439 E21.01958
G1 X49.447 Y61.286 E21.0269
G1 X49.575 Y60.796 E21.05048
G1 X49.668 Y60.469 E21.06631
G1 X49.865 Y59.847 E21.0967
G1 X49.929 Y59.664 E21.10572
G1 X50.079 Y59.261 E21.12575
G1 X50.202 Y58.949 E21.14136
G1 X50.481 Y58.302 E21.17417
G1 X50.552 Y58.151 E21.18194
G1 X50.787 Y57.68 E21.20645
G1 X50.963 Y57.348 E21.22395
G1 X51.256 Y56.831 E21.25162
G1 X51.339 Y56.693 E21.25912
G1 X51.617 Y56.253 E21.28335
G1 X51.808 Y55.967 E21.29937
G1 X52.215 Y55.399 E21.3319
G1 X52.325 Y55.255 E21.34034
G1 X52.618 Y54.887 E21.36225
G1 X52.839 Y54.622 E21.37831
G1 X53.194 Y54.217 E21.40339
G1 X53.31 Y54.091 E21.41137
G1 X53.749 Y53.64 E21.44067
G0 F6000 X54.028 Y53.928
G1 F1200 X54.284 Y53.68 E21.45727
G1 X54.719 Y53.28 E21.48479
G1 X54.831 Y53.183 E21.49169
G1 X55.238 Y52.848 E21.51623
G1 X55.56 Y52.596 E21.53527
G1 X56.141 Y52.173 E21.56873
G1 X56.514 Y51.927 E21.58954
G1 X56.851 Y51.714 E21.6081
G1 X57.321 Y51.433 E21.6336
G1 X57.442 Y51.365 E21.64007
G1 X57.991 Y51.077 E21.66893
G1 X58.346 Y50.904 E21.68732
G1 X58.865 Y50.668 E21.71387
G1 X58.981 Y50.619 E21.71973
G1 X59.447 Y50.436 E21.74305
G1 X59.795 Y50.308 E21.76031
G1 X60.382 Y50.111 E21.78914
G1 X60.557 Y50.058 E21.79766
G1 X61.051 Y49.921 E21.82153
G1 X61.382 Y49.838 E21.83742
G1 X61.867 Y49.729 E21.86056
G1 X62.011 Y49.7 E21.8674
G1 X62.601 Y49.598 E21.89529
G1 X62.985 Y49.543 E21.91335
G1 X63.587 Y49.474 E21.94156
G1 X63.716 Y49.463 E21.94759
G1 X64.216 Y49.433 E21.97092
G1 X64.744 Y49.413 E21.99552
G1 X65.016 Y49.406 E22.00819
G1 X65.555 Y49.4 E22.03329
G1 X154.293 Y49.4 E26.1653
G1 X155.324 Y49.414 E26.21331
G1 X155.892 Y49.438 E26.23979
G1 X156.256 Y49.463 E26.25678
G1 X156.806 Y49.515 E26.2825
G1 X156.938 Y49.531 E26.28869
G1 X157.418 Y49.6 E26.31127
G1 X157.799 Y49.664 E26.32926
G1 X158.535 Y49.815 E26.36425
G1 X158.688 Y49.852 E26.37158
G1 X159.104 Y49.962 E26.39161
G1 X159.43 Y50.055 E26.4074
G1 X160.021 Y50.242 E26.43626
G1 X160.204 Y50.306 E26.44529
G1 X160.598 Y50.453 E26.46487
G1 X160.912 Y50.577 E26.48059
G1 X161.526 Y50.842 E26.51173
G1 X161.675 Y50.912 E26.5194
G1 X162.144 Y51.147 E26.54382
G1 X162.475 Y51.323 E26.56128
G1 X162.933 Y51.581 E26.58576
G1 X163.072 Y51.664 E26.59329
G1 X163.525 Y51.95 E26.61824
G1 X163.811 Y52.141 E26.63425
G1 X164.341 Y52.519 E26.66457
G1 X164.483 Y52.627 E26.67287
G1 X164.852 Y52.921 E26.69484
G1 X165.116 Y53.141 E26.71085
G1 X165.517 Y53.493 E26.73569
G1 X165.646 Y53.612 E26.74386
G1 X166.074 Y54.03 E26.77172
G1 X166.318 Y54.282 E26.78805
G1 X166.685 Y54.68 E26.81326
G1 X166.782 Y54.791 E26.82013
G1 X167.146 Y55.232 E26.84675
G1 X167.402 Y55.559 E26.86609
G1 X167.755 Y56.036 E26.89372
G1 X167.81 Y56.115 E26.8982
G1 X168.07 Y56.507 E26.92011
G1 X168.285 Y56.847 E26.93884
G1 X168.604 Y57.385 E26.96796
G1 X168.667 Y57.499 E26.97403
G1 X168.902 Y57.949 E26.99767
G1 X169.078 Y58.307 E27.01624
G1 X169.331 Y58.863 E27.04469
G1 X169.377 Y58.972 E27.0502
G1 X169.557 Y59.429 E27.07307
G1 X169.69 Y59.79 E27.09098
G1 X169.889 Y60.382 E27.12006
G1 X169.942 Y60.557 E27.12858
G1 X170.077 Y61.043 E27.15206
G1 X170.16 Y61.373 E27.16791
G1 X170.269 Y61.852 E27.19078
G1 X170.298 Y61.995 E27.19758
G1 X170.4 Y62.587 E27.22555
G1 X170.454 Y62.961 E27.24315
G1 X170.525 Y63.577 E27.27202
G1 X170.537 Y63.718 E27.27861
G1 X170.567 Y64.214 E27.30175
G1 X170.587 Y64.74 E27.32626
G1 X170.594 Y65.01 E27.33883
G1 X170.6 Y65.541 E27.36356
G1 X170.599 Y154.451 E31.50358
G1 X170.586 Y155.324 E31.54424
G1 X170.563 Y155.877 E31.57001
G1 X170.539 Y156.234 E31.58667
G1 X170.485 Y156.81 E31.61361
G1 X170.468 Y156.949 E31.62013
G1 X170.395 Y157.445 E31.64348
G1 X170.331 Y157.82 E31.66119
G1 X170.203 Y158.454 E31.69131
G1 X170.166 Y158.612 E31.69886
G1 X170.041 Y159.095 E31.72209
G1 X169.948 Y159.422 E31.73792
G1 X169.758 Y160.021 E31.76719
G1 X169.694 Y160.204 E31.77621
G1 X169.549 Y160.593 E31.79554
G1 X169.426 Y160.905 E31.81116
G1 X169.158 Y161.527 E31.8427
G1 X169.087 Y161.678 E31.85047
G1 X168.859 Y162.134 E31.87421
G1 X168.684 Y162.464 E31.8916
G1 X168.408 Y162.952 E31.91771
G1 X168.324 Y163.092 E31.92531
G1 X168.036 Y163.546 E31.95034
G1 X167.844 Y163.832 E31.96638
G1 X167.502 Y164.312 E31.99383
G1 X167.394 Y164.455 E32.00217
G1 X167.081 Y164.85 E32.02564
G1 X166.867 Y165.107 E32.04121
G1 X166.499 Y165.526 E32.06718
G1 X166.374 Y165.661 E32.07574
G1 X165.998 Y166.046 E32.1008
G1 X165.752 Y166.286 E32.11681
G1 X165.297 Y166.705 E32.14561
G1 X165.176 Y166.81 E32.15307
G1 X164.776 Y167.141 E32.17724
G1 X164.464 Y167.386 E32.19572
G1 X164.008 Y167.724 E32.22215
G1 X163.914 Y167.79 E32.22749
G1 X163.453 Y168.096 E32.25326
G1 X163.118 Y168.306 E32.27167
G1 X162.623 Y168.598 E32.29843
G1 X162.502 Y168.665 E32.30487
G1 X162.042 Y168.905 E32.32903
G1 X161.69 Y169.078 E32.34729
G1 X161.092 Y169.35 E32.37788
G1 X160.972 Y169.4 E32.38394
G1 X160.57 Y169.558 E32.40405
G1 X160.221 Y169.687 E32.42138
G1 X159.618 Y169.889 E32.45099
G1 X159.443 Y169.942 E32.4595
G1 X158.949 Y170.079 E32.48337
G1 X158.618 Y170.162 E32.49926
G1 X158.133 Y170.271 E32.52241
G1 X157.989 Y170.3 E32.52925
G1 X157.399 Y170.402 E32.55713
G1 X157.015 Y170.457 E32.57519
G1 X156.413 Y170.526 E32.60341
G1 X156.284 Y170.537 E32.60944
G1 X155.784 Y170.567 E32.63276
G1 X155.256 Y170.587 E32.65736
G1 X154.984 Y170.594 E32.67003
G1 X154.445 Y170.6 E32.69513
G1 X65.549 Y170.599 E36.8345
G1 X64.676 Y170.586 E36.87516
G1 X64.108 Y170.562 E36.90163
G1 X63.744 Y170.537 E36.91862
G1 X63.194 Y170.485 E36.94434
G1 X63.062 Y170.469 E36.95054
G1 X62.551 Y170.394 E36.97458
G1 X62.171 Y170.329 E36.99254
G1 X61.53 Y170.199 E37.02299
G1 X61.377 Y170.163 E37.03031
G1 X60.905 Y170.041 E37.05301
G1 X60.578 Y169.948 E37.06884
G1 X59.998 Y169.764 E37.09717
G1 X59.811 Y169.699 E37.10639
G1 X59.382 Y169.54 E37.1277
G1 X59.072 Y169.417 E37.14323
G1 X58.474 Y169.158 E37.17357
G1 X58.325 Y169.088 E37.18124
G1 X57.856 Y168.853 E37.20566
G1 X57.525 Y168.677 E37.22312
G1 X57.067 Y168.419 E37.2476
G1 X56.928 Y168.336 E37.25514
G1 X56.475 Y168.05 E37.28008
G1 X56.189 Y167.859 E37.2961
G1 X55.641 Y167.468 E37.32744
G1 X55.497 Y167.358 E37.33588
G1 X55.152 Y167.082 E37.35645
G1 X54.89 Y166.864 E37.37232
G1 X54.483 Y166.507 E37.39753
G1 X54.354 Y166.388 E37.40571
G1 X53.926 Y165.97 E37.43356
G1 X53.682 Y165.718 E37.4499
G1 X53.303 Y165.306 E37.47596
G1 X53.202 Y165.19 E37.48312
G1 X52.848 Y164.762 E37.50899
G1 X52.596 Y164.44 E37.52803
G1 X52.173 Y163.859 E37.56149
G1 X51.934 Y163.498 E37.58165
G1 X51.721 Y163.162 E37.60018
G1 X51.415 Y162.648 E37.62803
G1 X51.347 Y162.526 E37.63453
G1 X51.082 Y162.018 E37.66121
G1 X50.911 Y161.668 E37.67935
G1 X50.667 Y161.132 E37.70677
G1 X50.616 Y161.011 E37.71289
G1 X50.435 Y160.551 E37.73591
G1 X50.306 Y160.2 E37.75332
G1 X50.109 Y159.611 E37.78224
G1 X50.057 Y159.439 E37.79061
G1 X49.923 Y158.956 E37.81395
G1 X49.839 Y158.622 E37.82998
G1 X49.725 Y158.116 E37.85414
G1 X49.697 Y157.976 E37.86078
G1 X49.598 Y157.4 E37.888
G1 X49.543 Y157.016 E37.90606
G1 X49.474 Y156.407 E37.9346
G1 X49.463 Y156.277 E37.94067
G1 X49.433 Y155.786 E37.96358
G1 X49.413 Y155.26 E37.98809
G1 X49.406 Y154.986 E38.00085
G1 X49.4 Y154.445 E38.02605
G1 X49.401 Y65.54 E42.16584
G1 X49.415 Y64.654 E42.2071
G1 X49.439 Y64.1 E42.23292
G1 X49.463 Y63.748 E42.24935
G1 X49.515 Y63.193 E42.2753
G1 X49.531 Y63.061 E42.28149
G1 X49.607 Y62.545 E42.30578
G1 X49.672 Y62.166 E42.32369
G1 X49.801 Y61.53 E42.3539
G1 X49.837 Y61.377 E42.36122
G1 X49.959 Y60.905 E42.38392
G1 X50.052 Y60.578 E42.39975
G1 X50.242 Y59.979 E42.42901
G1 X50.306 Y59.796 E42.43804
G1 X50.451 Y59.407 E42.45737
G1 X50.574 Y59.095 E42.47299
G1 X50.842 Y58.473 E42.50453
G1 X50.913 Y58.322 E42.5123
G1 X51.141 Y57.867 E42.53599
G1 X51.317 Y57.535 E42.55349
G1 X51.598 Y57.037 E42.58012
G1 X51.681 Y56.899 E42.58762
G1 X51.95 Y56.475 E42.611
G1 X52.141 Y56.189 E42.62701
G1 X52.532 Y55.641 E42.65836
G1 X52.642 Y55.497 E42.6668
G1 X52.925 Y55.143 E42.6879
G1 X53.146 Y54.878 E42.70397
G1 X53.489 Y54.488 E42.72815
G1 X53.605 Y54.362 E42.73613
G1 X54.028 Y53.928 E42.76435
G0 F6000 X54.306 Y54.215
G1 F1200 X54.562 Y53.967 E42.78094
G1 X54.981 Y53.583 E42.80741
G1 X55.093 Y53.486 E42.81431
G1 X55.485 Y53.163 E42.83796
G1 X55.807 Y52.911 E42.857
G1 X56.366 Y52.504 E42.88919
G1 X56.727 Y52.265 E42.90935
G1 X57.064 Y52.052 E42.92792
G1 X57.517 Y51.782 E42.95247
G1 X57.638 Y51.714 E42.95894
G1 X58.167 Y51.437 E42.98674
G1 X58.522 Y51.264 E43.00513
G1 X59.021 Y51.037 E43.03066
G1 X59.137 Y50.988 E43.03652
G1 X59.585 Y50.811 E43.05895
G1 X59.933 Y50.683 E43.07622
G1 X60.497 Y50.494 E43.10391
G1 X60.672 Y50.441 E43.11243
G1 X61.148 Y50.309 E43.13543
