;FLAVOR:Marlin
;TIME:5706
;Filament used: 6.86852m
;Layer height: 0.28
;MINX:49.01
;MINY:49.01
;MINZ:0.28
;MAXX:170.99
;MAXY:170.99
;MAXZ:12.88
;Generated with Cura_SteamEngine 4.12.0
M140 S60
M105
M190 S60
M104 S200
M105
M109 S200
M82 ;absolute extrusion mode
; Ender 3 Custom Start G-code
G92 E0 ; Reset Extruder
G28 ; Home all axes
G1 Z2.0 F3000 ; Move Z Axis up little to prevent scratching of Heat Bed
G1 X0.1 Y20 Z0.3 F5000.0 ; Move to start position
G1 X0.1 Y200.0 Z0.3 F1500.0 E15 ; Draw the first line
G1 X0.4 Y200.0 Z0.3 F5000.0 ; Move to side a little
G1 X0.4 Y20 Z0.3 F1500.0 E30 ; Draw the second line
G92 E0 ; Reset Extruder
G1 Z2.0 F3000 ; Move Z Axis up little to prevent scratching of Heat Bed
G1 X5 Y20 Z0.3 F5000.0 ; Move over to prevent blob squish
G92 E0
G92 E0
G1 F1500 E-6.5
;LAYER_COUNT:46
;LAYER:0
M107
G0 F6000 X66.882 Y66.865 Z0.28
;TYPE:SKIRT
G1 F1500 E0
G1 F1200 X67.089 Y66.658 E0.01363
G1 X67.477 Y66.283 E0.03876
G1 X68.589 Y65.228 E0.11013
G1 X69.136 Y64.722 E0.14483
G1 X69.365 Y64.516 E0.15917
G1 X69.864 Y64.081 E0.19
G1 X70.859 Y63.232 E0.2509
G1 X71.615 Y62.604 E0.29667
G1 X71.845 Y62.417 E0.31047
G1 X72.264 Y62.089 E0.33525
G1 X73.468 Y61.166 E0.40589
G1 X74.135 Y60.669 E0.44462
G1 X74.356 Y60.508 E0.45735
G1 X74.875 Y60.143 E0.4869
G1 X76.11 Y59.296 E0.55663
G1 X76.747 Y58.872 E0.59226
G1 X76.976 Y58.724 E0.60496
G1 X77.556 Y58.359 E0.63687
G1 X78.768 Y57.618 E0.70301
G1 X79.511 Y57.178 E0.74322
G1 X79.738 Y57.047 E0.75543
G1 X80.275 Y56.748 E0.78405
G1 X81.517 Y56.075 E0.84982
G1 X82.312 Y55.657 E0.89165
G1 X82.584 Y55.518 E0.90587
G1 X83.075 Y55.278 E0.93132
G1 X84.428 Y54.634 E1.00109
G1 X85.169 Y54.294 E1.03906
G1 X85.415 Y54.185 E1.05159
G1 X86.03 Y53.922 E1.08273
G1 X87.426 Y53.345 E1.15307
G1 X88.137 Y53.063 E1.18868
G1 X88.389 Y52.967 E1.20124
G1 X88.989 Y52.747 E1.231
G1 X90.341 Y52.27 E1.29776
G1 X91.124 Y52.005 E1.33625
G1 X91.397 Y51.916 E1.34962
G1 X92.017 Y51.725 E1.37983
G1 X93.399 Y51.317 E1.44692
G1 X94.201 Y51.092 E1.48571
G1 X94.482 Y51.017 E1.49925
G1 X95.066 Y50.87 E1.5273
G1 X96.496 Y50.528 E1.59576
G1 X97.267 Y50.354 E1.63256
G1 X97.559 Y50.292 E1.64646
G1 X98.218 Y50.163 E1.67773
G1 X99.72 Y49.887 E1.74884
G1 X100.463 Y49.761 E1.78393
G1 X100.725 Y49.72 E1.79628
G1 X101.378 Y49.626 E1.827
G1 X102.801 Y49.44 E1.89383
G1 X103.607 Y49.346 E1.93161
G1 X103.875 Y49.318 E1.94416
G1 X104.496 Y49.262 E1.97319
G1 X105.979 Y49.146 E2.04246
G1 X106.778 Y49.095 E2.07974
G1 X107.059 Y49.081 E2.09284
G1 X107.736 Y49.056 E2.12438
G1 X109.178 Y49.019 E2.19155
G1 X109.944 Y49.01 E2.22722
G1 X110.227 Y49.01 E2.2404
G1 X110.937 Y49.021 E2.27346
G1 X112.319 Y49.059 E2.33784
G1 X113.175 Y49.093 E2.37773
G1 X113.479 Y49.109 E2.39191
G1 X114.075 Y49.15 E2.41972
G1 X115.552 Y49.267 E2.48871
G1 X116.314 Y49.337 E2.52435
G1 X116.62 Y49.37 E2.53868
G1 X117.288 Y49.451 E2.57001
G1 X118.693 Y49.637 E2.636
G1 X119.537 Y49.76 E2.67572
G1 X119.818 Y49.805 E2.68897
G1 X120.376 Y49.902 E2.71534
G1 X121.849 Y50.176 E2.78511
G1 X122.671 Y50.341 E2.82415
G1 X122.928 Y50.396 E2.83639
G1 X123.55 Y50.537 E2.86608
G1 X124.811 Y50.84 E2.92647
G1 X125.76 Y51.081 E2.97206
G1 X126.062 Y51.162 E2.98662
G1 X126.631 Y51.324 E3.01417
G1 X128.052 Y51.747 E3.08321
G1 X128.863 Y52 E3.12277
G1 X129.146 Y52.093 E3.13664
G1 X129.726 Y52.292 E3.16519
G1 X131.087 Y52.775 E3.23244
G1 X131.823 Y53.047 E3.26897
G1 X132.107 Y53.156 E3.28314
G1 X132.667 Y53.382 E3.31126
G1 X134.021 Y53.944 E3.37952
G1 X134.814 Y54.286 E3.41973
G1 X135.063 Y54.397 E3.43243
G1 X135.594 Y54.643 E3.45968
G1 X136.919 Y55.277 E3.52808
G1 X137.668 Y55.647 E3.56698
G1 X137.927 Y55.779 E3.58051
G1 X138.487 Y56.075 E3.61001
G1 X139.608 Y56.684 E3.66941
G1 X140.481 Y57.174 E3.71603
G1 X140.712 Y57.307 E3.72844
G1 X141.282 Y57.647 E3.75934
G1 X142.463 Y58.372 E3.82387
G1 X143.207 Y58.842 E3.86485
G1 X143.439 Y58.993 E3.87774
G1 X143.954 Y59.338 E3.9066
G1 X145.184 Y60.185 E3.97614
G1 X145.831 Y60.644 E4.01308
G1 X146.052 Y60.805 E4.02581
G1 X146.558 Y61.184 E4.05525
G1 X147.606 Y61.988 E4.11675
G1 X148.372 Y62.594 E4.16224
G1 X148.58 Y62.762 E4.17469
G1 X149.053 Y63.156 E4.20335
G1 X150.067 Y64.022 E4.26544
G1 X150.801 Y64.668 E4.31097
G1 X150.989 Y64.837 E4.32274
G1 X151.45 Y65.264 E4.352
G1 X152.522 Y66.283 E4.42087
G1 X153.135 Y66.882 E4.46078
G1 X153.342 Y67.089 E4.47441
G1 X153.717 Y67.477 E4.49954
G1 X154.772 Y68.589 E4.57091
G1 X155.278 Y69.136 E4.60561
G1 X155.484 Y69.365 E4.61995
G1 X155.919 Y69.864 E4.65078
G1 X156.768 Y70.859 E4.71168
G1 X157.396 Y71.615 E4.75745
G1 X157.583 Y71.845 E4.77125
G1 X157.911 Y72.264 E4.79603
G1 X158.834 Y73.468 E4.86667
G1 X159.331 Y74.135 E4.9054
G1 X159.492 Y74.356 E4.91813
G1 X159.857 Y74.875 E4.94768
G1 X160.704 Y76.11 E5.01741
G1 X161.128 Y76.747 E5.05304
G1 X161.276 Y76.976 E5.06574
G1 X161.641 Y77.556 E5.09765
G1 X162.382 Y78.768 E5.1638
G1 X162.822 Y79.511 E5.20401
G1 X162.953 Y79.738 E5.21621
G1 X163.252 Y80.275 E5.24483
G1 X163.925 Y81.517 E5.31061
G1 X164.343 Y82.312 E5.35243
G1 X164.482 Y82.584 E5.36665
G1 X164.722 Y83.075 E5.3921
G1 X165.363 Y84.422 E5.46156
G1 X165.703 Y85.162 E5.49948
G1 X165.819 Y85.422 E5.51274
G1 X166.078 Y86.03 E5.54351
G1 X166.655 Y87.426 E5.61385
G1 X166.937 Y88.137 E5.64947
G1 X167.033 Y88.389 E5.66202
G1 X167.253 Y88.989 E5.69178
G1 X167.729 Y90.337 E5.75835
G1 X167.994 Y91.119 E5.7968
G1 X168.086 Y91.402 E5.81065
G1 X168.275 Y92.017 E5.84061
G1 X168.682 Y93.395 E5.90752
G1 X168.907 Y94.196 E5.94626
G1 X168.985 Y94.487 E5.96029
G1 X169.13 Y95.066 E5.98808
G1 X169.472 Y96.496 E6.05654
G1 X169.646 Y97.267 E6.09335
G1 X169.708 Y97.559 E6.10725
G1 X169.837 Y98.218 E6.13852
G1 X170.113 Y99.717 E6.20949
G1 X170.239 Y100.459 E6.24453
G1 X170.281 Y100.728 E6.25721
G1 X170.374 Y101.378 E6.28779
G1 X170.56 Y102.799 E6.35452
G1 X170.654 Y103.604 E6.39226
G1 X170.682 Y103.876 E6.40499
G1 X170.738 Y104.496 E6.43398
G1 X170.854 Y105.978 E6.5032
G1 X170.905 Y106.776 E6.54043
G1 X170.919 Y107.058 E6.55358
G1 X170.944 Y107.736 E6.58517
G1 X170.981 Y109.178 E6.65234
G1 X170.99 Y109.944 E6.68801
G1 X170.99 Y110.227 E6.70119
G1 X170.979 Y110.937 E6.73425
G1 X170.941 Y112.327 E6.799
G1 X170.907 Y113.167 E6.83814
G1 X170.892 Y113.441 E6.85092
G1 X170.848 Y114.106 E6.88196
G1 X170.733 Y115.552 E6.9495
G1 X170.658 Y116.359 E6.98724
G1 X170.627 Y116.652 E7.00096
G1 X170.55 Y117.283 E7.03056
G1 X170.36 Y118.719 E7.09801
G1 X170.243 Y119.515 E7.13547
G1 X170.199 Y119.787 E7.1483
G1 X170.086 Y120.438 E7.17907
G1 X169.824 Y121.849 E7.24589
G1 X169.659 Y122.671 E7.28493
G1 X169.604 Y122.928 E7.29717
G1 X169.463 Y123.55 E7.32687
G1 X169.125 Y124.952 E7.39402
G1 X168.919 Y125.762 E7.43294
G1 X168.84 Y126.055 E7.44707
G1 X168.671 Y126.648 E7.47578
G1 X168.265 Y128.014 E7.54214
G1 X168.015 Y128.818 E7.58134
G1 X167.922 Y129.102 E7.59526
G1 X167.717 Y129.701 E7.62474
G1 X167.234 Y131.063 E7.69203
G1 X166.96 Y131.805 E7.72886
G1 X166.851 Y132.088 E7.74298
G1 X166.626 Y132.646 E7.771
G1 X166.046 Y134.045 E7.84152
G1 X165.738 Y134.761 E7.87781
G1 X165.618 Y135.029 E7.89148
G1 X165.348 Y135.612 E7.9214
G1 X164.723 Y136.919 E7.98886
G1 X164.353 Y137.668 E8.02776
G1 X164.221 Y137.927 E8.0413
G1 X163.925 Y138.487 E8.07079
G1 X163.243 Y139.74 E8.13722
G1 X162.83 Y140.476 E8.17652
G1 X162.69 Y140.717 E8.18949
G1 X162.353 Y141.282 E8.22013
G1 X161.628 Y142.463 E8.28466
G1 X161.158 Y143.207 E8.32563
G1 X161.007 Y143.439 E8.33852
G1 X160.662 Y143.954 E8.36739
G1 X159.815 Y145.184 E8.43693
G1 X159.356 Y145.831 E8.47387
G1 X159.195 Y146.052 E8.4866
G1 X158.816 Y146.558 E8.51603
G1 X158.012 Y147.606 E8.57754
G1 X157.406 Y148.372 E8.62302
G1 X157.238 Y148.58 E8.63547
G1 X156.844 Y149.053 E8.66414
G1 X155.978 Y150.067 E8.72623
G1 X155.332 Y150.801 E8.77176
G1 X155.163 Y150.989 E8.78353
G1 X154.736 Y151.45 E8.81279
G1 X153.717 Y152.522 E8.88166
G1 X153.118 Y153.135 E8.92157
G1 X152.911 Y153.342 E8.9352
G1 X152.523 Y153.717 E8.96033
G1 X151.411 Y154.772 E9.0317
G1 X150.864 Y155.278 E9.0664
G1 X150.635 Y155.484 E9.08074
G1 X150.136 Y155.919 E9.11156
G1 X149.141 Y156.768 E9.17247
G1 X148.385 Y157.396 E9.21823
G1 X148.155 Y157.583 E9.23204
G1 X147.736 Y157.911 E9.25681
G1 X146.532 Y158.834 E9.32746
G1 X145.865 Y159.331 E9.36619
G1 X145.644 Y159.492 E9.37892
G1 X145.125 Y159.857 E9.40847
G1 X143.89 Y160.704 E9.4782
G1 X143.253 Y161.128 E9.51383
G1 X143.024 Y161.276 E9.52652
G1 X142.444 Y161.641 E9.55843
G1 X141.232 Y162.382 E9.62458
G1 X140.489 Y162.822 E9.66479
G1 X140.262 Y162.953 E9.677
G1 X139.725 Y163.252 E9.70561
G1 X138.483 Y163.925 E9.77139
G1 X137.688 Y164.343 E9.81322
G1 X137.416 Y164.482 E9.82744
G1 X136.925 Y164.722 E9.85289
G1 X135.572 Y165.366 E9.92266
G1 X134.831 Y165.706 E9.96062
G1 X134.585 Y165.815 E9.97315
G1 X133.97 Y166.078 E10.0043
G1 X132.574 Y166.655 E10.07464
G1 X131.863 Y166.937 E10.11025
G1 X131.611 Y167.033 E10.12281
G1 X131.011 Y167.253 E10.15257
G1 X129.659 Y167.73 E10.21932
G1 X128.876 Y167.995 E10.25782
G1 X128.603 Y168.084 E10.27119
G1 X127.983 Y168.275 E10.30139
G1 X126.601 Y168.683 E10.36849
G1 X125.799 Y168.908 E10.40728
G1 X125.518 Y168.983 E10.42082
G1 X124.934 Y169.13 E10.44886
G1 X123.504 Y169.472 E10.51733
G1 X122.733 Y169.646 E10.55413
G1 X122.441 Y169.708 E10.56803
G1 X121.782 Y169.837 E10.5993
G1 X120.28 Y170.113 E10.67041
G1 X119.537 Y170.239 E10.7055
G1 X119.275 Y170.28 E10.71785
G1 X118.622 Y170.374 E10.74857
G1 X117.199 Y170.56 E10.81539
G1 X116.393 Y170.654 E10.85318
G1 X116.125 Y170.682 E10.86573
G1 X115.504 Y170.738 E10.89476
G1 X114.021 Y170.854 E10.96403
G1 X113.222 Y170.905 E11.00131
G1 X112.941 Y170.919 E11.01441
G1 X112.264 Y170.944 E11.04595
G1 X110.822 Y170.981 E11.11312
G1 X110.056 Y170.99 E11.14879
G1 X109.773 Y170.99 E11.16197
G1 X109.063 Y170.979 E11.19503
G1 X107.681 Y170.941 E11.25941
G1 X106.825 Y170.907 E11.2993
G1 X106.521 Y170.891 E11.31347
G1 X105.925 Y170.85 E11.34129
G1 X104.448 Y170.733 E11.41028
G1 X103.686 Y170.663 E11.44591
G1 X103.38 Y170.63 E11.46025
G1 X102.712 Y170.549 E11.49158
G1 X101.307 Y170.363 E11.55757
G1 X100.463 Y170.24 E11.59729
G1 X100.182 Y170.195 E11.61054
G1 X99.624 Y170.098 E11.63691
G1 X98.151 Y169.824 E11.70668
G1 X97.329 Y169.659 E11.74572
G1 X97.072 Y169.604 E11.75795
G1 X96.45 Y169.463 E11.78765
G1 X95.189 Y169.16 E11.84804
G1 X94.24 Y168.919 E11.89363
G1 X93.938 Y168.838 E11.90819
G1 X93.369 Y168.676 E11.93574
G1 X91.948 Y168.253 E12.00478
G1 X91.137 Y168 E12.04433
G1 X90.854 Y167.907 E12.05821
G1 X90.274 Y167.708 E12.08676
G1 X88.913 Y167.225 E12.154
G1 X88.177 Y166.953 E12.19054
G1 X87.893 Y166.844 E12.20471
G1 X87.333 Y166.618 E12.23283
G1 X85.979 Y166.056 E12.30109
G1 X85.186 Y165.714 E12.3413
G1 X84.937 Y165.603 E12.354
G1 X84.406 Y165.357 E12.38125
G1 X83.081 Y164.723 E12.44964
G1 X82.332 Y164.353 E12.48854
G1 X82.073 Y164.221 E12.50208
G1 X81.513 Y163.925 E12.53157
G1 X80.392 Y163.316 E12.59098
G1 X79.519 Y162.826 E12.63759
G1 X79.288 Y162.693 E12.65001
G1 X78.718 Y162.353 E12.68091
G1 X77.537 Y161.628 E12.74544
G1 X76.793 Y161.158 E12.78642
G1 X76.561 Y161.007 E12.7993
G1 X76.046 Y160.662 E12.82817
G1 X74.814 Y159.813 E12.89784
G1 X74.166 Y159.353 E12.93484
G1 X73.951 Y159.196 E12.94724
G1 X73.442 Y158.816 E12.97682
G1 X72.394 Y158.012 E13.03832
G1 X71.625 Y157.404 E13.08397
G1 X71.422 Y157.239 E13.09615
G1 X70.947 Y156.844 E13.12492
G1 X69.933 Y155.978 E13.18701
G1 X69.199 Y155.332 E13.23254
G1 X69.011 Y155.163 E13.24431
G1 X68.55 Y154.736 E13.27357
G1 X67.478 Y153.717 E13.34244
G1 X66.865 Y153.118 E13.38235
G1 X66.658 Y152.911 E13.39598
G1 X66.283 Y152.523 E13.42111
G1 X65.229 Y151.411 E13.49245
G1 X64.722 Y150.863 E13.52721
G1 X64.514 Y150.632 E13.54169
G1 X64.081 Y150.136 E13.57234
G1 X63.138 Y149.029 E13.64006
G1 X62.604 Y148.386 E13.67898
G1 X62.414 Y148.15 E13.69309
G1 X62.089 Y147.736 E13.71759
G1 X61.166 Y146.532 E13.78824
G1 X60.669 Y145.865 E13.82697
G1 X60.508 Y145.644 E13.8397
G1 X60.143 Y145.125 E13.86924
G1 X59.298 Y143.893 E13.93881
G1 X58.873 Y143.255 E13.9745
G1 X58.719 Y143.018 E13.98767
G1 X58.359 Y142.444 E14.01921
G1 X57.618 Y141.232 E14.08536
G1 X57.178 Y140.489 E14.12557
G1 X57.047 Y140.262 E14.13777
G1 X56.748 Y139.725 E14.16639
G1 X56.075 Y138.483 E14.23217
G1 X55.657 Y137.688 E14.274
G1 X55.518 Y137.416 E14.28822
G1 X55.278 Y136.925 E14.31367
G1 X54.634 Y135.572 E14.38344
G1 X54.294 Y134.831 E14.4214
G1 X54.185 Y134.585 E14.43393
G1 X53.922 Y133.97 E14.46508
G1 X53.345 Y132.574 E14.53542
G1 X53.063 Y131.863 E14.57103
G1 X52.967 Y131.611 E14.58359
G1 X52.747 Y131.011 E14.61335
G1 X52.27 Y129.659 E14.6801
G1 X52.005 Y128.876 E14.7186
G1 X51.916 Y128.603 E14.73197
G1 X51.725 Y127.983 E14.76217
G1 X51.317 Y126.601 E14.82927
G1 X51.092 Y125.799 E14.86806
G1 X51.017 Y125.518 E14.8816
G1 X50.87 Y124.934 E14.90964
G1 X50.528 Y123.504 E14.97811
G1 X50.354 Y122.733 E15.01491
G1 X50.292 Y122.441 E15.02881
G1 X50.163 Y121.782 E15.06008
G1 X49.887 Y120.28 E15.13119
G1 X49.761 Y119.537 E15.16628
G1 X49.72 Y119.275 E15.17863
G1 X49.626 Y118.622 E15.20935
G1 X49.44 Y117.199 E15.27617
G1 X49.346 Y116.393 E15.31396
G1 X49.318 Y116.125 E15.32651
G1 X49.262 Y115.504 E15.35554
G1 X49.146 Y114.021 E15.42481
G1 X49.095 Y113.222 E15.46209
G1 X49.081 Y112.941 E15.47519
G1 X49.056 Y112.264 E15.50673
G1 X49.019 Y110.822 E15.5739
G1 X49.01 Y110.056 E15.60957
G1 X49.01 Y109.773 E15.62275
G1 X49.021 Y109.063 E15.65581
G1 X49.059 Y107.673 E15.72056
G1 X49.093 Y106.833 E15.75971
G1 X49.108 Y106.559 E15.77248
G1 X49.152 Y105.894 E15.80352
G1 X49.267 Y104.448 E15.87106
G1 X49.342 Y103.641 E15.9088
G1 X49.373 Y103.348 E15.92252
G1 X49.45 Y102.717 E15.95212
G1 X49.64 Y101.281 E16.01957
G1 X49.757 Y100.485 E16.05703
G1 X49.801 Y100.213 E16.06986
G1 X49.914 Y99.562 E16.10063
G1 X50.176 Y98.151 E16.16745
G1 X50.341 Y97.329 E16.20649
G1 X50.396 Y97.072 E16.21873
G1 X50.537 Y96.45 E16.24843
G1 X50.84 Y95.189 E16.30882
G1 X51.087 Y94.22 E16.35538
G1 X51.161 Y93.945 E16.36864
G1 X51.329 Y93.352 E16.39734
G1 X51.734 Y91.989 E16.46355
G1 X51.98 Y91.197 E16.50217
G1 X52.074 Y90.909 E16.51627
G1 X52.295 Y90.263 E16.54807
G1 X52.766 Y88.939 E16.6135
G1 X53.049 Y88.175 E16.65144
G1 X53.146 Y87.921 E16.6641
G1 X53.4 Y87.288 E16.69586
G1 X53.944 Y85.979 E16.76187
G1 X54.286 Y85.186 E16.80208
G1 X54.397 Y84.937 E16.81477
G1 X54.643 Y84.406 E16.84202
G1 X55.277 Y83.081 E16.91042
G1 X55.647 Y82.332 E16.94932
G1 X55.779 Y82.073 E16.96286
G1 X56.075 Y81.513 E16.99235
G1 X56.757 Y80.26 E17.05878
G1 X57.17 Y79.524 E17.09808
G1 X57.31 Y79.283 E17.11105
G1 X57.647 Y78.718 E17.14169
G1 X58.372 Y77.537 E17.20622
G1 X58.842 Y76.793 E17.24719
G1 X58.993 Y76.561 E17.26008
G1 X59.338 Y76.046 E17.28895
G1 X60.185 Y74.816 E17.35849
G1 X60.644 Y74.169 E17.39543
G1 X60.805 Y73.948 E17.40816
G1 X61.184 Y73.442 E17.4376
G1 X61.988 Y72.394 E17.4991
G1 X62.594 Y71.628 E17.54458
G1 X62.762 Y71.42 E17.55703
G1 X63.156 Y70.947 E17.5857
G1 X64.022 Y69.933 E17.64779
G1 X64.668 Y69.199 E17.69332
G1 X64.837 Y69.011 E17.70509
G1 X65.264 Y68.55 E17.73435
G1 X66.283 Y67.478 E17.80322
G1 X66.882 Y66.865 E17.84313
G0 F6000 X67.168 Y67.145
G1 F1200 X67.368 Y66.945 E17.8563
G1 X67.753 Y66.573 E17.88123
G1 X68.861 Y65.522 E17.95234
G1 X69.408 Y65.016 E17.98704
G1 X69.629 Y64.817 E18.00088
G1 X70.124 Y64.385 E18.03148
G1 X71.228 Y63.444 E18.09902
G1 X71.87 Y62.911 E18.13788
G1 X72.092 Y62.732 E18.15116
G1 X72.507 Y62.407 E18.1757
G1 X73.707 Y61.487 E18.24611
G1 X74.374 Y60.99 E18.28484
G1 X74.587 Y60.835 E18.29711
G1 X75.101 Y60.473 E18.32638
G1 X76.332 Y59.629 E18.39588
G1 X76.969 Y59.205 E18.43151
G1 X77.189 Y59.062 E18.44373
G1 X77.765 Y58.7 E18.47541
G1 X78.972 Y57.962 E18.54129
G1 X79.715 Y57.522 E18.58149
G1 X79.933 Y57.396 E18.59322
G1 X80.466 Y57.099 E18.62163
G1 X81.703 Y56.429 E18.68714
G1 X82.498 Y56.011 E18.72896
G1 X82.761 Y55.877 E18.7427
G1 X83.247 Y55.639 E18.7679
G1 X84.594 Y54.998 E18.83736
G1 X85.335 Y54.658 E18.87533
G1 X85.573 Y54.552 E18.88746
G1 X86.183 Y54.291 E18.91835
G1 X87.427 Y53.776 E18.98105
G1 X88.285 Y53.435 E19.02404
G1 X88.528 Y53.342 E19.03615
G1 X89.122 Y53.124 E19.06562
G1 X90.469 Y52.648 E19.13214
G1 X91.252 Y52.383 E19.17063
